Faizan9060/Kinematics-of-Baxter-Robot/dataset/train.csv
q1,q2,q3,q4,q5,q6,q7,x,y,z
-69,-119,-91,58,77,-89,52,-0.211,0.377,0.94
-86,-116,-94,3,43,3,-109,0.468,-0.113,0.255
-23,-64,1,104,11,-65,135,-0.158,0.065,0.412
-139,0,166,28,-171,-16,48,0.177,0.299,0.659
-87,45,-50,143,45,21,-32,0.257,0.346,0.85
-54,-59,83,43,116,97,127,0.238,0.406,0.095
-114,-38,157,115,-69,9,85,-0.178,-0.297,0.632
35,44,-29,102,140,-5,-53,0.54,-0.19,0.661
15,23,152,55,-162,-28,166,0.586,0.074,0.219
-23,-27,-56,38,165,-45,-40,0.701,-0.45,0.548
1,10,-11,32,-107,64,166,-0.16,-0.565,-0.322
-76,-49,-129,32,133,82,2,0.598,-0.414,1.019
-139,-24,67,70,58,-41,24,-0.051,-0.243,0.736
-124,-85,41,48,-99,81,116,-0.068,-0.072,-0.357
-66,-61,-127,14,8,-11,26,-0.057,0.665,0.394
-15,-64,75,106,149,-57,5,0.485,0.679,0.387
46,-67,-48,33,96,64,-80,-0.583,0.528,0.19
28,48,3,118,142,-75,110,0.679,-0.173,0.317
-56,44,30,104,74,14,54,-0.33,-0.321,0.582
-89,14,121,87,-42,6,-136,-0.23,-0.898,0.5
38,-13,41,37,43,79,-48,0.016,0.191,0.732
23,-20,63,87,-128,61,-36,0.213,0.586,0.31
-51,-114,-91,54,-144,6,-92,0.302,0.438,0.34
-124,-77,149,58,-95,26,-118,0.768,-0.092,0.082
41,58,142,124,-102,43,-17,-0.522,-0.161,-0.082
36,-4,119,101,-21,104,-95,-0.402,-0.403,-0.121
-70,-56,169,8,170,85,79,-0.151,-0.326,0.704
-75,-119,-26,58,-112,-79,81,0.267,-0.281,0.459
-78,-96,116,101,143,-6,-50,0.46,0.789,-0.006
-138,-92,-23,109,-175,6,-32,0.363,0.364,-0.306
-34,-106,-95,2,-106,50,91,-0.542,0.531,0.494
-123,7,-149,15,171,-82,7,-0.711,-0.053,0.117
-46,-48,15,1,9,29,89,-0.185,-0.582,0.177
-119,31,-110,52,135,-83,-172,-0.52,0.016,0.236
31,-70,169,11,102,-63,74,-0.695,0.082,0.224
-66,-82,114,47,-175,50,108,-0.591,0.144,0.444
-126,-89,82,91,38,8,-100,-0.052,-0.412,0.388
39,-72,83,94,-89,-36,-119,0.471,-0.522,-0.072
-61,-50,-151,96,123,-16,-122,-0.109,0.526,0.625
-15,-116,-152,145,4,-40,-88,-0.08,0.624,0.07
-20,-3,-94,100,107,-9,68,-0.544,-0.222,0.142
32,-45,131,7,114,86,-138,-0.073,-0.6,0.653
21,-25,67,101,55,2,-17,-0.07,-0.086,1.032
20,-1,64,67,-46,-66,152,0.065,0.063,0.452
-94,-120,124,-1,154,109,50,-0.242,0.258,0.568
-61,-69,7,72,40,-59,-52,0.198,0.189,0.407
-109,-41,-162,87,92,-68,-12,-0.559,0.499,0.235
-49,-81,-97,18,-114,116,-8,-0.088,0.444,0.625
-35,-20,56,88,139,33,103,0.406,-0.046,0.991
17,-46,-148,117,-64,6,15,0.413,0.187,0.458
-19,-33,32,58,-168,26,32,-0.424,0.417,0.743
-31,8,15,10,90,93,96,0.434,-0.089,-0.206
-110,-10,70,6,14,61,-53,-0.177,0.669,-0.161
-52,41,49,44,-154,101,55,-0.74,0.206,-0.352
-43,-85,-165,127,34,29,120,0.454,-0.048,0.457
-80,7,109,63,51,-74,-39,-0.313,0.359,1.05
21,-32,-31,3,84,49,123,0.249,0.42,0.474
-12,-6,-8,107,-47,-10,55,0.368,0.208,0.829
-67,24,171,70,82,25,-62,0.111,-0.772,0.779
-65,-19,69,145,111,105,161,0.042,-0.349,0.998
-6,-13,-148,26,50,40,-139,-0.407,0.218,0.664
24,44,115,3,106,16,-144,0.395,-0.029,0.614
-45,49,-12,128,-139,74,152,0.218,0.212,0.84
-1,58,46,85,-38,81,-89,0.207,-0.139,-0.188
-53,-79,-163,54,23,42,-27,-0.159,-0.003,0.416
-60,-101,127,149,76,86,174,-0.216,0.205,0.804
1,9,-40,85,111,55,62,-0.073,0.239,0.239
-123,16,-173,5,-166,101,141,0.654,-0.042,-0.033
-49,-37,58,25,-174,16,154,-0.042,0.533,0.736
-79,-55,-85,77,-141,-41,66,-0.356,0.239,0.711
-1,31,105,84,-42,-67,-128,-0.269,-0.168,0.261
-105,-5,-31,55,72,-83,39,0.116,0.519,0.889
10,34,18,139,-85,-34,-43,-0.244,0.486,0.077
-83,-23,12,30,171,-22,-22,-0.19,-0.662,0.147
-112,-14,69,21,145,-12,-61,0.304,0.129,0.831
9,-43,-9,72,150,-50,54,-0.259,-0.464,0.488
-9,-72,69,111,-95,-43,114,-0.616,0.416,0.209
29,-84,126,33,50,31,81,0.477,0.613,0.509
-39,-54,-100,120,94,112,-2,-0.516,-0.605,-0.296
-22,-6,-87,16,55,43,-164,-0.238,0.251,0.1
-80,41,102,83,-49,79,-166,0.166,-0.279,-0.064
3,-116,126,141,-164,76,-79,0.254,0.281,0.673
-29,-104,-88,126,17,110,109,0.041,0.527,-0.13
-74,10,103,-3,69,-73,59,0.029,-0.424,0.081
8,-104,133,4,19,87,-144,0.402,-0.221,0.406
34,-94,32,23,81,-50,36,0.35,0.448,0.591
-60,51,-9,29,57,88,77,-0.512,-0.33,0.228
-84,-116,101,120,158,76,-10,0.048,0.713,-0.314
-121,0,-39,132,-152,-62,-15,-0.171,0.095,1.213
-39,-50,-107,95,-84,-82,-44,0.007,-0.753,0.969
-4,50,-119,145,94,8,-165,-0.208,0.303,1.002
16,16,-120,113,105,15,-11,-0.267,0.445,-0.127
-67,53,-107,125,65,118,104,0.451,0.705,-0.104
-110,-103,162,130,62,91,-38,-0.122,0.373,0.03
-74,18,-25,54,13,-86,121,0.326,-0.358,0.377
-32,23,-24,3,-116,81,-15,0.003,0.079,0.71
0,-16,-147,51,107,37,128,0.566,-0.775,-0.08
8,11,22,-1,172,72,22,0.358,-0.28,0.558
-55,-81,26,95,-169,75,-97,-0.025,0.907,0.808
-17,-32,-16,28,120,-12,-149,-0.454,-0.113,0.191
-26,27,15,42,-173,-87,-35,-0.167,-0.155,-0.153
-72,-8,165,12,8,-31,7,0.423,0.781,0.429
6,-96,120,86,-122,-60,97,-0.01,-0.168,0.313
10,-65,65,149,112,30,164,0.083,0.15,0.629
-135,5,-143,39,-148,40,62,0.593,-0.07,0.245
-54,-90,8,72,-112,2,98,-0.017,-0.049,0.473
-122,-64,2,72,-57,-7,-137,0.32,-0.433,0.358
-84,-34,-130,125,5,-86,167,0.073,0.634,0.116
48,-6,-57,117,-41,76,75,0.023,0.421,0.383
18,-65,-138,49,-112,-63,125,-0.622,-0.469,-0.001
-61,-121,54,31,138,105,-122,0.132,-0.607,0.398
-97,26,-169,44,152,-86,-97,-0.64,-0.421,0.632
-39,7,33,57,111,59,103,-0.009,-0.486,0.838
19,52,42,11,15,-13,-156,0.798,0.284,0.105
-19,38,169,26,-12,95,-44,0.528,-0.578,0.802
-86,-84,30,118,154,73,-24,0.303,-0.339,-0.0
-2,-3,-92,121,58,-3,-75,0.018,0.01,-0.108
-26,2,42,67,135,-60,127,0.133,-0.156,0.127
-84,-116,117,66,-56,103,150,-0.043,0.017,-0.146
1,34,50,55,147,97,33,0.335,0.318,0.055
6,-59,-123,110,-140,86,174,0.135,0.096,0.109
-135,-64,-32,-3,-46,-75,-163,-0.172,0.551,0.196
-64,51,106,140,-22,38,-80,-0.556,-0.603,0.553
-8,-100,19,122,-22,68,96,-0.426,-0.069,0.171
-141,55,98,103,29,-59,84,-0.149,0.235,0.122
10,-65,-94,104,-106,89,-131,-0.45,0.124,0.354
-106,-6,85,27,152,-32,40,-0.522,-0.021,0.838
-48,-64,120,6,45,-25,37,0.723,-0.408,0.725
-102,12,30,22,136,-39,-116,-0.087,0.073,0.05
-136,-58,-37,16,111,67,-30,-0.064,0.122,0.338
-91,-42,63,77,-53,48,-139,-0.155,0.213,-0.158
4,12,-81,1,-31,-57,-123,0.189,-0.165,1.208
-123,11,148,51,18,90,-35,0.63,-0.091,0.043
-27,30,152,144,33,-78,144,0.109,0.558,0.564
-72,13,46,111,-152,5,147,-0.403,0.14,0.178
42,-11,133,83,68,84,-73,-0.598,-0.437,0.104
-29,25,105,47,87,13,-45,0.361,-0.358,0.265
-2,-51,-43,144,148,10,-116,0.158,0.447,0.6
3,-82,-66,1,-17,109,-71,0.487,0.126,0.552
-87,55,63,100,-117,-67,-84,-0.191,-0.565,0.13
-47,7,-41,37,174,56,12,-0.795,0.178,0.813
49,-104,-50,121,-1,-72,-15,-0.483,-0.173,-0.154
-100,-56,-152,149,-124,54,-26,0.165,0.205,0.876
27,-77,153,129,41,36,-139,-0.08,0.032,0.567
-121,-109,66,92,-114,-15,-157,0.089,0.074,0.04
-43,44,-69,112,42,65,63,0.181,-0.275,0.64
-125,-62,-127,10,-131,38,46,-0.337,0.168,0.59
-27,-110,-15,103,-96,14,123,-0.445,-0.549,-0.032
-66,-33,-56,6,162,-80,-50,0.484,0.47,0.614
-58,-11,-167,23,46,-36,-32,-0.27,-0.137,0.048
50,-113,132,56,-92,82,-74,-0.133,0.053,1.195
-35,-90,165,101,31,-21,-155,0.673,0.18,0.211
-135,-113,86,124,-16,-21,-128,-0.266,-0.249,0.823
7,15,-98,141,5,5,93,0.027,0.467,0.086
-72,-53,-155,128,-135,-78,86,-0.046,-0.086,0.042
-51,-53,-60,90,24,94,80,0.266,-0.203,-0.426
-65,-105,107,98,38,97,-34,-0.54,-0.107,0.477
-72,-17,15,112,162,57,-20,-0.71,0.462,-0.092
-11,-33,122,132,-170,100,171,0.425,-0.805,0.471
-95,-49,-24,87,-19,42,72,-0.093,-0.569,0.459
-13,-5,-118,88,-17,34,-26,0.649,-0.166,0.57
33,4,68,78,113,15,-64,0.435,0.121,0.058
-102,-76,-46,33,-128,-72,-139,-0.401,0.053,0.649
-81,45,168,21,-110,39,168,0.358,-0.398,0.761
-27,27,-156,122,67,1,105,-0.35,-0.094,-0.34
-48,-25,81,28,-161,-90,-114,0.252,-0.058,0.442
-90,30,21,132,-81,39,-155,0.185,0.824,0.232
-32,-22,-164,64,-78,-4,8,-0.467,-0.422,-0.112
-45,-24,51,41,152,-27,-129,-0.245,-0.563,0.315
16,5,-73,1,37,-44,-103,0.866,0.218,0.184
-46,27,119,9,-44,24,38,-0.538,0.321,0.311
-11,4,-136,66,-57,40,-75,0.019,-0.479,0.217
-86,55,-19,74,104,8,17,0.395,0.086,0.051
-21,1,40,4,104,-54,24,-0.085,-0.176,0.204
-35,-85,-50,33,71,-82,62,0.71,0.252,-0.003
-51,-33,-37,38,-128,25,78,-0.782,0.466,0.564
-70,-62,-116,67,88,-78,-99,0.437,-0.082,0.561
12,17,-59,144,61,93,-154,-0.737,0.122,0.52
-13,-77,-150,31,18,91,-148,-0.413,-0.197,0.516
-92,-9,71,10,-110,39,157,0.01,-0.305,0.327
-98,29,69,51,-127,-63,139,0.939,0.002,0.251
-74,-37,144,135,141,76,-159,0.458,-0.185,0.275
2,-10,-81,96,-162,21,-108,0.12,-0.101,-0.072
0,59,17,27,121,80,20,0.615,-0.202,0.509
-2,-51,133,39,-83,33,134,0.15,-0.045,1.056
-13,-77,103,2,3,-74,32,-0.456,0.188,-0.213
-74,-95,95,149,57,-47,-92,0.179,-0.143,0.792
-73,-83,126,48,-147,20,163,0.137,0.453,0.508
-102,-61,32,72,56,-75,92,-0.499,0.129,0.117
9,54,94,88,-36,71,113,0.644,0.075,-0.086
43,4,7,42,-16,102,-144,-0.118,-0.332,0.446
25,-65,-79,42,-104,3,-74,-0.166,-0.166,0.419
-12,19,7,146,66,6,121,0.577,0.588,0.657
-69,-47,28,127,16,27,-20,0.404,-0.54,-0.225
-137,-57,62,128,-13,78,-71,0.273,-0.297,0.605
-117,-18,-100,101,6,50,-157,-0.617,0.707,0.796
-1,50,-25,136,-36,-22,115,-0.204,0.153,0.641
-54,-70,55,33,55,-19,117,0.574,0.54,0.549
-39,-42,138,104,-129,-89,-93,-0.079,-0.21,0.734
-77,59,104,76,-68,-62,173,-0.613,-0.779,0.366
-6,-69,-66,140,130,109,-100,-0.211,0.108,0.953
31,27,-167,-1,-46,-1,50,0.141,-0.829,0.129
-66,-99,39,82,27,-60,80,-0.687,-0.071,0.279
-1,-117,46,144,-22,89,124,-0.506,-0.677,0.102
-48,-109,-96,87,159,-67,32,0.486,-0.335,0.198
-41,23,29,10,-43,-65,-137,0.278,0.086,-0.185
-111,10,-154,115,36,-49,-159,0.192,0.151,-0.491
-138,-12,171,145,19,104,23,0.557,0.065,0.67
-106,-68,163,127,-20,67,143,0.734,0.33,0.354
44,51,-33,20,-148,15,130,0.425,-0.43,0.607
29,-15,-50,95,144,-4,50,0.004,0.621,0.376
-99,-95,-49,122,-167,95,-128,-0.467,0.29,0.56
-19,-59,140,19,81,80,-165,-0.411,-0.619,0.016
23,50,51,-3,-77,-51,-9,-0.41,-0.193,0.221
-133,-60,0,-1,146,100,101,-0.316,-0.857,0.098
-17,46,-140,96,116,44,104,0.361,0.468,0.882
-97,-115,82,37,165,-86,-29,0.402,0.481,-0.022
6,17,-61,12,-53,41,-51,-0.365,-0.363,0.23
-3,57,38,67,103,67,-139,-0.003,0.138,0.84
-35,27,87,111,170,35,78,-0.304,0.416,0.562
48,17,-13,126,-116,-52,89,0.244,0.594,0.641
-34,59,-9,115,-122,97,-9,-0.624,0.041,0.419
-28,-103,-56,54,67,76,-90,-0.116,0.363,0.701
40,-91,-117,19,86,95,137,0.579,0.38,-0.407
17,-15,102,104,-53,10,-83,-0.081,-0.014,0.317
-131,-106,-122,94,-41,-3,171,0.483,0.163,0.692
-33,59,-16,32,78,-70,34,-0.265,-0.913,-0.004
-76,-115,-83,28,-46,-4,16,-0.308,-0.462,0.344
-110,17,-88,17,29,-44,111,-0.017,0.635,-0.004
-11,58,156,35,-158,-78,98,0.246,0.077,0.534
21,-121,91,35,-63,83,-120,-0.062,-0.491,0.472
-74,28,60,35,-141,-48,-27,-0.027,0.324,0.187
12,-29,-93,4,-69,56,44,-0.456,-0.233,0.293
-44,-52,-84,139,-151,-70,126,-0.634,-0.667,0.252
7,-70,105,61,38,49,72,-0.455,-0.191,0.151
-138,-100,3,5,40,34,55,0.448,-0.163,0.589
-119,18,-57,119,114,-56,20,-0.579,-0.265,0.96
22,33,88,138,105,39,2,-0.695,0.462,0.647
-33,-116,-6,89,81,3,133,-0.554,0.193,0.065
-20,-1,134,8,-161,-21,-148,0.27,0.279,0.38
-9,-37,-101,82,151,42,-151,-0.409,0.004,0.955
-50,-33,-48,67,144,-1,-119,-0.06,0.199,0.68
-35,-67,-50,56,-84,-82,-18,-0.581,0.849,0.245
-140,40,-5,112,74,-76,-153,-0.787,-0.26,0.443
-45,-26,134,6,86,96,71,-0.164,0.11,0.978
-38,-15,-31,32,-63,44,140,-0.899,-0.205,0.037
-50,27,-24,12,154,-9,-79,0.681,0.016,0.393
-126,34,-119,118,-100,78,-41,0.184,-0.649,0.016
-64,-114,54,73,-121,-6,-95,0.349,0.447,0.268
-108,-40,44,32,-128,15,117,-0.57,0.218,-0.021
0,21,118,61,-66,80,-93,0.643,-0.019,-0.026
23,-44,56,111,-72,12,63,0.267,0.427,0.561
-52,-109,-31,132,-164,47,-92,-0.419,0.388,0.285
-37,54,-156,79,-59,-79,81,-0.159,-0.089,0.292
-98,-11,135,106,-118,-68,66,-0.233,0.886,0.283
4,-111,-63,94,-129,-34,131,-0.6,-0.182,-0.097
19,33,57,83,172,43,134,0.523,-0.449,-0.186
-117,38,-109,145,36,-69,66,0.104,0.195,1.264
-35,-119,43,92,-67,-43,-44,0.149,-0.312,0.406
-62,-99,125,23,10,36,-120,0.066,0.422,0.536
-21,-88,115,87,-159,-14,116,-0.352,0.191,0.884
-109,-86,13,96,-117,96,86,-0.309,-0.136,-0.315
-118,-6,-27,63,166,46,-112,0.216,0.44,0.899
35,38,-56,35,-20,-69,-138,-0.341,0.446,0.305
22,-47,60,18,-56,44,89,0.351,0.551,-0.344
-138,57,91,15,110,-90,88,-0.067,0.21,0.304
1,53,-83,132,120,94,50,0.919,-0.078,-0.214
40,-14,139,135,49,73,-76,-0.1,-0.186,0.572
-139,-60,122,131,-93,70,73,-0.561,-0.592,-0.032
33,13,-26,98,-35,105,105,-0.2,-0.126,0.694
45,-93,-6,122,-91,-11,-172,0.5,0.159,-0.087
-75,52,144,149,160,98,-33,0.518,0.251,0.371
-93,-43,-24,10,89,82,-54,0.502,-0.102,0.187
-90,-92,-125,103,47,32,-97,-0.177,0.335,-0.255
26,-73,-8,6,-122,-13,-21,0.944,0.029,-0.161
-79,34,169,11,-61,-77,42,-0.375,0.716,0.149
14,17,21,76,-32,-59,-91,0.259,-0.597,0.287
-31,-104,125,12,-175,-23,119,0.36,-0.509,-0.214
41,9,-95,126,7,57,170,-0.253,0.874,-0.166
49,-21,91,53,19,-54,-96,-0.04,0.328,0.052
-22,29,53,145,-9,40,-143,0.304,0.594,0.053
-56,3,-129,60,91,90,71,0.092,0.231,0.14
34,-91,172,64,45,0,172,-0.124,0.365,-0.606
-81,-47,107,145,141,-50,65,0.21,-0.763,-0.332
-109,6,131,80,-157,-68,-83,0.421,0.29,0.808
-34,-82,85,84,-76,16,-20,0.367,0.138,0.663
-53,33,109,103,168,-44,-89,-0.235,-0.537,-0.087
47,-120,133,7,111,-64,-165,0.29,-0.484,0.91
-141,24,105,57,-103,27,122,0.514,0.346,0.707
41,-18,124,-1,-164,-30,-169,-0.491,-0.17,0.996
-89,-86,10,118,-31,-49,-47,0.013,-0.777,-0.14
-5,6,151,-3,145,101,-141,0.493,-0.033,0.24
-96,-81,8,82,141,-64,-49,0.224,-0.689,0.888
-98,-42,-11,140,35,119,104,-0.464,0.136,-0.373
-20,-7,-167,39,-8,42,-15,-0.363,0.509,0.43
-97,-111,64,97,-118,-78,25,-0.241,0.328,0.102
-82,-38,130,34,-98,78,-134,-0.09,-0.208,0.306
-49,7,-56,116,174,-40,-29,0.102,0.297,0.144
-38,-69,-57,118,27,28,-154,0.113,0.155,0.834
-26,46,-74,65,123,54,-157,0.286,-0.134,0.023
3,19,45,132,-9,-88,-108,-0.271,-0.038,1.271
-121,3,-167,143,-98,47,68,-0.47,0.03,0.175
14,15,135,53,28,91,160,0.012,0.241,0.304
-26,37,144,142,-125,-58,-117,-0.49,-0.22,0.372
-108,-80,154,34,73,-39,41,0.366,0.009,0.395
-59,-31,-32,17,76,-15,-129,-0.139,0.17,0.798
-137,39,39,76,-108,-22,140,0.436,0.513,0.507
3,-118,-98,96,88,-9,43,-0.689,0.018,0.384
-123,-72,150,1,132,30,-103,0.551,0.626,0.002
-17,-24,144,44,-82,87,48,-0.119,0.805,0.832
-49,-109,-35,130,121,70,10,-0.105,-0.351,0.641
-19,-100,-41,101,-4,119,-127,0.246,0.142,1.243
-123,-61,-16,34,-138,54,158,-0.603,0.226,0.178
29,-110,96,97,98,-7,-110,0.367,0.039,0.096
17,-3,-69,116,54,67,23,-0.014,0.026,0.375
-60,-41,-94,-1,-131,-68,68,-0.281,0.721,-0.196
-128,-45,-12,93,-13,-71,83,-0.256,0.374,0.437
-45,-14,46,99,-134,40,32,0.002,0.104,0.639
38,10,-119,40,-28,-9,144,-0.228,-0.029,0.273
-100,39,43,26,68,52,-8,0.636,-0.164,0.784
-24,55,130,73,2,42,163,-0.243,-0.444,0.115
-93,-113,3,130,-106,44,88,-0.037,0.679,0.528
-133,41,119,110,-78,-6,-49,-0.195,-0.341,0.687
-38,-62,-83,137,-7,64,59,0.452,0.019,1.029
39,16,-19,141,144,109,-127,0.536,-0.091,0.374
-54,-99,95,54,-143,-90,164,0.031,0.605,0.411
-67,-30,-105,126,-80,53,8,-0.468,0.46,0.487
12,-100,-112,72,-137,100,-105,0.416,-0.498,0.095
-34,-3,-103,62,-111,45,22,0.126,0.585,-0.226
16,-7,20,23,140,3,118,0.111,0.317,0.566
-77,46,89,103,-82,-26,-15,-0.151,-0.101,-0.387
-23,-35,118,148,1,24,32,-0.219,0.598,0.441
-102,-111,154,29,-1,-40,-132,0.184,-0.243,0.185
-77,-110,-83,20,123,74,-161,-0.692,0.085,0.474
-34,-17,117,107,91,100,121,-1.024,-0.004,0.535
10,-59,-89,101,-12,-51,108,-0.095,0.914,0.022
50,-54,19,45,30,76,-154,-0.229,-0.776,-0.21
26,43,150,42,88,114,119,-0.304,-0.572,0.177
-70,-71,159,3,-140,34,2,-0.138,0.416,0.148
-52,26,90,116,19,-86,110,-0.187,-0.452,0.144
21,-34,21,26,-147,70,-125,0.62,-0.034,-0.437
24,-120,-104,11,-27,99,129,0.054,-0.283,0.768
-56,21,-48,90,-45,82,-66,0.296,0.541,-0.226
14,-87,75,68,-175,67,42,0.308,0.282,0.846
-66,-96,115,84,-86,44,-21,0.351,-0.524,0.197
-139,-27,-59,100,103,-49,-97,-0.61,0.373,0.497
-35,53,74,94,-23,-26,94,-0.107,0.912,-0.122
-111,28,-129,127,-23,-9,-64,-0.197,0.397,0.048
-134,40,90,9,-175,-5,-131,0.15,0.019,-0.014
-66,-59,-12,23,62,89,2,0.019,0.679,0.442
-107,-122,141,27,121,105,93,-0.116,0.056,-0.297
-33,-72,-15,35,-30,22,-100,-0.134,0.111,-0.105
-130,-67,-109,104,174,70,116,-0.484,0.402,0.426
34,44,-91,69,-91,104,-130,0.107,0.208,0.856
-129,-27,32,60,126,79,78,0.3,0.236,0.577
-96,14,-106,20,133,-24,12,-0.139,-0.719,-0.155
-100,10,61,100,-47,-18,88,-0.203,-0.509,-0.359
30,1,-63,49,-175,15,-123,0.052,-0.579,0.752
-5,-11,118,136,-21,-23,70,0.036,0.144,0.65
-42,-25,-25,79,-97,-26,119,0.419,-0.051,0.351
33,-105,75,52,135,109,64,0.492,0.335,-0.078
-77,-29,-63,145,-72,-82,-19,-0.825,-0.27,-0.265
-1,-24,-109,104,21,38,-124,0.385,0.228,0.424
-87,-94,61,129,106,105,-59,-0.038,-0.295,0.385
-105,-60,107,39,-74,94,54,0.738,-0.203,-0.178
4,17,90,-3,43,8,-42,0.423,0.237,0.524
-4,-74,76,115,-92,-90,-123,0.118,0.382,0.033
-5,-43,-129,29,-132,-66,158,-0.007,0.555,0.47
24,-2,-145,29,-139,39,-61,-0.541,-0.293,0.032
-23,-51,18,142,-6,38,4,0.383,-0.225,0.028
23,-30,-1,124,11,-17,-6,-0.194,-0.233,0.813
-110,-31,46,109,95,-38,114,-0.445,-0.61,0.435
6,-22,0,17,65,-75,-20,0.447,-0.517,0.342
1,43,106,50,-41,23,-136,-0.113,-0.298,0.926
-19,51,53,18,68,-24,-125,0.804,-0.107,0.733
-63,-113,153,13,50,84,-148,0.255,0.319,0.84
14,19,144,14,-59,6,-11,0.614,0.496,0.715
4,39,-101,142,57,-73,-12,-0.264,-0.23,0.733
34,38,110,28,63,-37,96,-0.314,-0.388,0.259
5,-2,-73,128,-57,-58,62,-0.026,0.338,-0.286
-140,14,72,22,80,-67,-42,0.195,-0.587,0.366
13,-50,-167,110,53,-59,-104,0.263,0.135,0.339
-57,-71,-83,54,129,-49,69,0.123,-0.342,0.006
-27,-81,-145,85,14,-26,169,-0.331,0.301,0.618
-76,-74,6,27,33,-74,-3,-0.125,-0.485,-0.049
-12,-75,-94,102,136,-5,-113,0.724,0.229,0.817
13,-50,15,144,-105,-60,-51,0.042,-0.023,0.934
-83,-112,-100,13,139,27,-151,0.131,-0.817,0.229
-38,-83,-116,42,117,4,-24,-0.013,0.101,0.567
-26,23,161,102,28,79,-138,-0.23,-0.373,0.173
-113,4,136,-2,-129,-68,66,-0.105,0.228,-0.076
-24,-72,100,130,-157,-40,4,0.51,0.016,0.284
-58,-17,160,97,145,102,38,0.243,-0.168,-0.008
-40,-101,158,20,-88,-42,21,-0.078,-0.36,0.819
-53,38,102,17,-91,92,149,-0.148,0.256,0.686
-135,30,108,97,1,-28,173,0.107,0.118,0.654
26,-95,-30,40,163,-17,-39,0.03,0.28,0.761
-92,-33,65,110,63,21,93,0.082,-0.209,0.647
-42,-45,-23,137,-164,-73,-80,0.021,-0.301,0.806
-21,-19,-17,26,78,18,-41,0.503,-0.299,0.936
11,-28,-64,82,54,-89,-175,-0.812,0.351,0.087
-116,38,57,97,-145,-22,-151,-0.477,0.093,0.622
-3,-76,-68,138,118,-65,-84,0.352,0.278,0.701
34,-49,-53,67,-95,-24,160,-0.752,0.177,0.229
-29,-29,-39,60,150,73,89,0.008,0.332,0.522
-84,-57,-35,92,119,32,-116,-0.071,-0.486,0.769
2,42,126,106,154,13,-5,0.815,0.032,0.022
-27,-113,122,139,-165,110,-121,-0.046,-0.047,0.935
-75,23,11,45,-139,55,-69,-0.179,-0.802,0.345
-104,-81,-95,115,-22,43,59,0.122,0.602,0.365
-128,41,-143,58,67,32,14,0.116,0.394,-0.508
-55,10,154,116,89,55,-83,-0.022,-0.048,-0.336
-7,-86,-60,90,-100,-29,-104,0.379,-0.113,0.094
-67,-5,-7,1,-95,-39,-29,0.033,0.949,0.396
-97,-4,79,10,33,43,144,-0.364,-0.373,-0.148
15,44,157,20,94,4,170,-0.101,0.232,0.993
-112,-98,-112,4,-22,75,-56,0.444,-0.327,0.497
-35,-29,-64,94,-101,-51,156,-0.443,0.746,-0.198
-44,50,-170,131,-64,-70,70,-0.519,0.114,0.788
18,21,-127,139,67,92,24,-0.293,-0.625,0.055
-110,-80,-141,120,-135,9,-70,-0.486,0.465,0.489
-60,36,-166,39,137,77,-16,0.601,0.183,-0.131
-10,-32,-116,5,68,38,115,-0.165,-0.334,1.029
-64,-89,18,96,139,21,106,-0.289,-0.266,0.432
-105,-111,-2,15,-166,-20,-150,-0.129,0.147,0.68
-96,3,19,108,-22,39,4,-0.54,0.325,-0.344
-92,-42,30,141,-104,-69,-99,0.025,0.139,0.844
38,10,154,3,-92,-39,-14,-0.222,0.149,-0.132
-43,-84,75,49,-142,-24,150,0.323,-0.12,-0.292
-71,-91,124,101,-98,-35,95,-0.502,0.341,0.164
-6,5,-152,130,53,-43,49,-0.227,-0.046,-0.108
44,-114,22,76,-79,-73,133,-0.393,-0.4,0.59
-130,-120,-41,105,-162,90,-128,0.012,0.158,0.837
-26,-103,112,82,83,46,-135,-0.695,-0.01,0.381
-45,-41,-78,20,100,95,-81,0.034,-0.896,0.037
19,-4,92,143,67,-23,-136,0.416,0.173,0.059
-31,2,-158,52,85,-50,-155,0.436,-0.715,0.453
-60,-91,-124,94,102,91,58,0.053,0.353,-0.291
-74,-113,-129,132,-157,65,36,-0.25,-0.094,0.948
-123,-20,54,68,-21,-16,152,0.096,-0.238,0.483
30,10,136,133,25,97,101,-0.404,-0.176,-0.137
-53,-96,11,45,141,-83,-83,-0.232,0.709,0.399
-122,-105,-167,129,12,71,-69,-0.443,-0.177,-0.145
-65,31,-123,38,-81,57,-97,0.353,0.471,1.031
-131,-57,-37,60,63,34,-127,0.256,-0.151,0.694
-88,-71,146,130,-27,-36,-69,-0.246,-0.054,0.709
-107,-17,143,7,-133,-69,0,0.496,-0.867,0.554
-125,24,-34,0,-51,116,-53,-0.406,-0.315,0.466
39,43,-148,131,105,-42,14,-0.272,-0.115,0.775
-21,45,-172,148,-73,91,-130,-0.102,-0.247,0.274
16,-44,118,51,-170,31,78,-0.221,0.337,1.19
-91,-82,-60,79,-100,35,-95,0.038,-0.298,0.706
-23,-1,100,89,143,-72,130,0.233,-0.257,0.804
-53,-104,-12,42,74,83,-32,-0.293,0.585,0.412
-91,-85,86,30,29,-24,-51,-0.352,-0.049,-0.312
12,25,-114,61,129,111,-60,0.03,0.331,0.653
-3,-116,80,88,129,109,-153,0.175,0.455,-0.202
-2,54,-79,135,-130,-9,-129,0.071,0.24,0.198
-10,6,91,123,-51,74,153,-0.192,-0.289,0.218
-45,-64,-103,106,-66,-56,30,-0.092,0.618,0.79
29,-1,-37,74,-47,-83,134,0.106,0.677,0.515
-59,-95,95,23,82,-39,15,-0.429,0.132,0.611
15,-29,83,97,-108,34,11,0.105,0.314,-0.223
-102,55,69,55,-33,84,-86,-0.465,0.031,0.35
-13,-112,115,14,35,75,89,0.875,0.169,0.398
32,-100,-60,55,-72,-5,102,0.48,0.373,0.26
6,-57,-51,148,129,-16,-99,0.058,-0.124,0.332
-126,35,26,113,170,92,-112,-0.45,-0.462,0.142
-60,-86,-77,66,52,-25,-139,-0.247,-0.14,0.712
-69,-73,75,104,67,-50,-149,0.18,-0.239,0.753
-34,-113,131,147,33,35,-78,0.046,0.209,0.506
-1,42,-78,50,-38,40,124,-0.567,0.142,-0.077
-112,-10,154,63,39,65,-95,0.715,0.332,0.261
-50,-118,51,147,152,33,-86,0.079,-0.125,-0.009
33,36,-49,69,-11,-88,62,0.468,-0.825,0.37
-91,-56,-24,95,41,-51,102,-0.731,-0.436,0.753
-57,22,168,11,-16,-2,93,-0.156,-0.303,-0.317
-30,-34,-124,27,7,47,-107,-0.012,-0.336,0.148
-99,-27,35,-2,169,1,113,-0.205,-0.622,0.141
-16,-42,-128,19,93,-76,161,-0.576,0.871,0.226
-85,-117,8,74,-39,-59,144,0.03,0.338,0.25
-59,21,163,67,81,23,-21,-0.213,0.077,0.51
-131,-108,122,58,-89,94,93,-0.524,-0.587,0.034
32,-5,-145,131,-39,22,-17,0.263,0.105,0.65
-83,46,105,134,61,-4,-164,-0.292,-0.625,0.558
-137,-39,20,105,-14,-88,-105,0.546,-0.163,0.677
-84,-47,-96,78,-146,-90,1,-0.418,0.076,0.49
-3,-120,-145,69,-16,101,-51,0.52,0.084,1.055
18,-115,36,60,88,86,162,-0.268,-0.325,-0.02
-139,-51,169,121,160,-13,8,-0.195,-0.569,0.826
-22,-81,-122,50,64,41,3,-0.222,0.017,0.911
-65,-86,55,146,-37,111,82,-0.631,-0.264,0.59
-127,-63,-173,98,116,-8,-161,0.218,-0.372,0.593
-14,38,-107,36,-135,-15,85,0.171,0.062,0.732
-31,-23,-9,-2,-158,47,173,0.421,0.24,0.156
11,41,-65,104,-118,68,-76,-0.007,-0.413,-0.226
-97,28,-145,94,-173,-90,-84,-0.23,0.555,-0.225
-56,23,151,58,-49,-34,-97,-0.066,-0.377,0.556
-62,18,-102,146,-175,13,-119,0.505,-0.557,0.595
46,-21,-116,49,-157,11,-146,0.113,-0.497,0.099
-117,-86,-36,106,-84,-40,-146,-0.075,0.613,0.484
-37,-42,147,55,-38,-41,157,0.491,0.157,-0.05
-4,-96,-51,64,49,75,-104,0.654,0.015,0.886
37,-58,121,25,-32,73,-86,-0.489,-0.013,0.603
-115,-90,-66,126,-137,0,68,-0.436,0.791,-0.106
5,-44,-93,83,-34,49,-48,0.635,-0.134,0.648
34,-85,124,44,65,-25,-91,0.283,0.82,-0.283
-13,-86,-101,16,-35,-68,53,-0.188,-0.09,0.535
46,-37,-26,6,-154,-47,157,-0.26,0.512,0.616
-85,19,169,136,30,-65,-170,0.099,0.048,0.315
28,-9,-125,124,-27,65,-156,0.189,0.357,0.448
-18,-101,-3,58,150,-46,-162,-0.192,-0.493,0.76
-26,-112,89,111,-49,-89,6,-0.27,-0.63,0.364
-66,-70,65,58,52,-81,-14,0.67,-0.394,0.301
-120,-68,-75,22,-139,-45,29,-0.135,-0.351,-0.0
-65,-95,-153,66,85,92,25,0.1,-0.058,0.256
0,-49,-103,138,117,3,81,0.589,-0.216,0.327
-69,-98,8,144,-135,80,3,0.699,-0.455,-0.034
-43,52,-57,52,-95,105,95,0.763,0.01,0.046
-12,-54,120,115,76,39,143,-0.177,-0.344,-0.031
-115,-94,82,149,148,54,-32,0.064,0.115,0.622
-37,48,-29,106,-92,78,42,0.204,-0.547,0.209
1,-107,124,45,-151,-41,105,-0.022,-0.301,0.755
46,6,-55,124,-86,37,-115,0.228,0.426,0.908
-51,-101,-115,1,132,4,128,-0.365,0.16,0.84
-61,-95,23,66,89,73,-68,0.054,-0.448,0.383
-137,12,-92,64,-144,112,-44,-0.485,-0.344,0.909
-57,-122,-94,120,168,112,-144,-0.73,-0.07,-0.195
-130,-23,-129,57,137,29,119,0.273,0.697,0.184
-69,-82,-69,63,-18,29,7,0.107,-0.21,0.914
-133,-4,113,138,-156,-5,-155,-0.137,-0.802,-0.237
-129,32,144,1,114,76,47,-0.621,0.652,0.601
-131,-27,129,124,-154,41,93,-0.061,-0.277,0.489
10,-9,-100,134,41,101,-57,0.527,0.49,0.313
-45,-1,42,68,-91,58,-76,0.117,0.511,0.46
-116,-98,21,111,-79,93,117,-0.043,0.602,0.006
-76,-91,6,62,-121,-70,-102,0.001,-0.598,-0.359
27,31,-98,77,156,88,82,-0.331,-0.672,0.563
-111,-88,84,66,-153,11,162,-0.219,0.111,0.174
-48,-8,149,17,-78,-82,155,0.168,-0.503,-0.091
42,-11,-87,148,-17,-66,89,-0.309,-0.083,0.451
-15,-101,-51,104,85,-4,38,-0.253,0.094,0.314
-124,-79,35,37,-69,-70,-54,0.4,0.216,-0.451
-38,-30,116,140,146,-51,-128,0.747,0.252,0.597
15,-23,-96,98,-150,13,84,-0.578,0.013,0.246
1,-30,90,99,-118,26,-156,0.744,-0.069,0.349
-29,-2,-135,130,-126,-76,-17,0.076,-0.519,0.315
-24,-61,-109,47,-92,106,22,-0.175,0.523,0.487
49,-119,21,101,-7,60,-123,0.094,-0.365,0.846
-10,-110,127,22,65,115,60,0.002,-0.112,0.271
-3,-117,-93,99,-76,-31,-72,-0.324,0.76,0.335
0,-104,-14,24,-164,97,-110,0.478,-0.354,0.074
-16,-96,93,91,101,38,158,-0.181,0.405,-0.034
-34,32,-165,103,129,-68,-18,-0.058,0.498,0.699
-106,15,30,141,-171,36,10,0.228,-0.154,0.599
-123,-64,55,6,90,35,137,0.468,0.148,0.69
30,-116,-85,-3,-172,53,108,0.017,-0.245,-0.014
-113,-43,31,60,-161,-89,-168,-0.119,-0.193,0.755
-57,49,34,145,139,31,-174,-0.884,0.246,0.482
-106,-12,-127,14,-22,-23,65,0.626,0.038,0.707
-56,-38,85,134,-100,64,-70,-0.463,-0.028,0.192
-133,23,-57,122,6,82,-128,-0.237,-0.428,0.64
-127,52,150,90,-146,-52,-28,-0.564,-0.229,0.145
-141,-9,104,25,17,-33,-143,0.006,0.774,0.079
24,-26,126,4,-48,74,-9,-0.579,-0.006,0.493
-35,-100,129,31,-65,6,137,-0.537,0.357,1.069
-136,20,-53,145,-137,68,140,-0.455,0.529,0.944
-48,-84,37,46,-164,-23,-100,0.446,0.398,0.332
-93,-73,104,102,58,54,-108,0.171,0.535,0.197
-105,-108,142,57,-73,72,66,0.503,-0.157,0.506
-70,-87,45,39,-85,-83,-162,0.546,-0.5,0.078
-78,-85,118,97,-144,-67,161,-0.384,-0.159,0.223
-125,-27,-142,6,-101,-14,-76,-0.208,-0.666,0.541
-97,-59,156,83,-63,-24,97,-0.32,0.641,0.519
-118,56,-74,45,-112,-17,-159,-0.53,-0.036,0.626
-113,10,-95,92,-76,11,-58,0.371,-0.176,0.258
44,-84,3,70,-1,-49,113,-0.295,-0.334,-0.436
-124,53,-3,9,-54,-25,-152,-0.37,0.493,0.082
-58,14,-133,73,-121,5,134,0.244,-0.02,0.494
-94,9,42,7,-139,0,91,0.748,-0.71,0.193
-18,59,-79,52,-1,-53,18,0.616,0.314,0.045
30,-23,71,3,16,-76,150,-0.029,0.137,-0.149
-62,-43,-86,71,52,-21,133,0.252,0.495,0.183
-66,-99,150,-3,-99,91,133,-0.298,-0.026,0.513
-71,16,101,93,102,-24,100,-0.689,-0.14,-0.096
38,-8,-34,125,-5,114,-15,-0.615,-0.502,0.589
-98,-51,-72,146,-172,84,-67,0.562,-0.102,0.653
-114,5,-72,20,146,-64,23,-0.611,0.44,0.061
-41,-66,-98,2,50,69,-61,-0.396,-0.095,-0.412
14,-37,-67,64,121,89,-61,-0.502,0.325,0.882
-60,-57,98,93,-22,-59,-19,-0.075,0.026,0.878
-11,25,47,120,-162,-1,154,-0.26,-0.32,1.074
-23,16,-87,105,-14,21,-77,0.493,-0.007,0.355
-79,4,-113,138,-29,11,-14,0.798,0.157,0.183
49,55,124,135,87,0,-152,-0.241,-0.184,-0.188
-114,-86,58,49,123,-79,174,-0.147,-0.335,0.374
18,49,89,51,57,50,-103,-0.399,0.657,0.82
-112,-117,-62,45,163,89,124,0.434,-0.144,-0.441
-29,-63,-161,89,139,88,72,-0.006,-0.618,0.958
-123,59,-20,38,128,70,-75,-0.023,0.873,-0.209
-138,-11,-41,23,-141,-36,-94,0.204,0.227,0.023
-73,-6,120,93,-18,113,10,0.344,0.238,0.983
-76,-117,-7,27,22,53,45,-0.289,-0.365,0.054
-37,-84,165,138,-119,13,63,-0.015,-0.878,-0.129
-43,-25,71,74,146,-5,-147,0.478,-0.118,0.8
-41,-27,153,25,-16,32,91,0.787,0.466,0.351
-54,47,114,22,23,12,-163,0.298,-0.088,0.494
-64,41,-163,11,-113,-25,-133,-0.479,-0.654,0.222
-98,-63,-30,136,-63,19,-128,-0.077,0.603,0.536
-95,26,-7,22,-86,64,-5,-0.265,-0.009,0.275
48,11,-39,93,58,-19,16,0.385,0.6,-0.041
-113,16,106,64,-42,93,95,0.011,-0.762,0.442
23,-27,-107,83,112,22,-48,-0.037,0.596,0.415
-124,-80,-57,97,137,66,114,0.469,0.301,0.254
-137,-24,3,129,-18,113,-139,-0.285,0.436,0.058
-98,-27,110,72,-151,-46,2,0.242,-0.029,-0.215
-19,-101,-127,88,52,-67,-62,0.067,-0.13,1.009
-36,52,104,23,-57,-46,141,-0.276,0.302,0.202
-114,-62,15,18,65,-39,96,0.381,-0.671,0.811
-35,-58,-60,77,59,45,-121,0.614,0.011,-0.195
-6,-18,-40,149,-50,-36,12,0.62,0.35,0.611
-133,-16,105,6,2,13,35,-0.507,-0.534,-0.396
-127,-90,-54,126,-80,90,-172,-0.571,0.131,-0.149
-136,-8,-73,104,-38,99,91,-0.156,-0.374,0.193
2,-45,-34,113,36,-16,161,0.083,-0.349,0.676
35,20,126,60,-124,-8,81,-0.365,0.362,0.568
-79,-27,-163,86,-57,-43,53,0.42,0.594,0.273
7,-20,159,43,110,-55,167,0.202,-0.28,0.776
14,33,-7,32,-36,11,174,0.719,0.388,0.51
-89,-93,145,144,-51,-24,-56,0.026,-0.903,0.651
-22,-34,157,68,47,-60,141,-0.029,0.243,-0.123
-79,-88,-172,148,167,96,-136,0.268,-0.225,0.323
-87,-117,-160,10,103,32,-109,-0.182,0.268,-0.059
-14,40,-49,67,26,-16,5,-0.456,-0.395,0.198
-91,-8,-88,49,-64,50,78,0.274,0.644,-0.074
2,-113,-126,3,52,64,-58,0.235,0.186,0.125
26,32,-73,104,122,-61,-90,-0.035,0.188,0.161
-4,44,-137,29,31,-56,80,0.139,0.603,0.505
-23,52,42,96,-73,55,-65,-0.115,0.222,0.809
-51,-109,119,107,-41,-26,48,-0.902,0.079,0.355
-135,-108,-43,64,-50,-85,90,0.17,-0.033,0.762
13,-25,16,27,-84,-21,-15,-0.24,-0.26,0.528
33,-18,17,105,30,36,173,-0.318,0.256,0.317
-65,-23,32,50,-78,79,56,-0.516,-0.439,0.151
40,0,114,27,-77,25,-70,-0.701,0.332,0.601
-113,-15,-51,48,70,-38,-51,0.466,-0.325,-0.037
-114,-16,114,111,51,84,27,-0.26,-0.564,0.21
-136,58,55,66,-74,-51,-75,-0.175,-0.02,0.842
-118,-70,-168,139,46,-13,160,-0.477,-0.513,0.876
-110,-10,134,98,104,116,121,-0.067,0.026,0.176
-123,-78,-66,28,25,-82,-137,-0.276,-0.129,-0.238
-51,-22,-45,110,-42,-84,55,0.152,-0.421,0.097
-2,-50,82,69,51,-87,14,-0.061,-0.472,1.144
-42,37,-90,6,16,21,174,-0.103,-0.261,0.837
35,-61,-54,142,118,-59,-161,-0.127,-0.178,0.148
-17,4,-162,57,-21,-54,5,0.586,-0.197,0.061
-13,-12,129,107,-174,22,-142,0.005,-0.096,0.886
42,-80,135,132,34,81,-7,-0.634,-0.797,0.545
-61,-59,-31,68,-149,56,77,0.832,0.14,0.062
-26,-63,-38,16,69,11,128,-0.246,-0.418,0.404
-3,-89,170,57,-59,30,-165,0.483,-0.188,0.901
-15,9,64,31,-86,36,165,-0.561,0.329,-0.291
-118,-41,150,117,-12,78,78,0.413,0.328,-0.01
-34,31,-152,129,143,-49,-26,0.176,0.528,0.347
-79,-14,150,135,141,40,-15,-0.091,0.189,0.431
23,31,-41,87,-104,-88,-139,-0.007,-0.189,1.16
-9,-41,69,68,130,-49,62,-0.687,0.354,0.249
-133,58,-116,123,-158,-1,-73,0.385,0.04,0.159
1,-5,4,84,95,93,-16,0.027,0.27,0.963
39,-105,-73,100,105,0,132,0.833,0.589,0.165
-84,-25,-48,74,-111,38,-157,-0.641,-0.198,0.735
-8,-65,153,64,130,-45,-166,-0.134,0.331,-0.461
-22,-35,-75,129,-156,-16,101,-0.239,0.355,0.332
-76,19,45,21,23,-3,158,0.434,0.092,0.601
-127,-67,-38,98,-12,40,12,-0.058,-0.546,0.473
-119,-32,44,79,164,-75,-171,0.124,-0.477,0.192
-52,-3,49,74,-102,-81,165,-0.423,-0.352,-0.364
-97,-65,108,130,88,-66,-24,0.241,0.42,0.398
19,37,155,32,-97,104,-57,-0.054,-0.32,0.787
-56,25,96,74,-71,-19,22,0.5,-0.23,0.883
37,29,-105,132,73,51,-129,-0.868,-0.139,-0.029
5,13,-67,114,106,66,63,0.183,-0.36,0.836
24,-65,77,-1,-48,-56,-19,-0.786,-0.058,0.442
-128,-68,-59,16,147,-79,120,-0.079,-0.124,0.268
-10,51,169,111,167,39,26,0.267,-0.022,0.601
-66,-117,134,82,-134,66,-149,-0.468,0.477,0.161
-69,-74,-134,128,38,-52,31,0.334,-0.068,0.915
-53,14,-34,26,-75,43,-83,-0.808,-0.133,0.85
43,-122,-113,111,-109,-25,36,-0.241,-0.624,0.339
-27,59,-108,108,-79,25,-2,-0.933,0.052,0.405
-66,-7,-147,124,129,15,64,-0.025,-0.207,0.436
-99,-110,-6,27,-149,47,-80,0.141,-0.185,0.231
-138,-49,-21,56,125,43,39,0.895,0.171,0.345
-14,-110,-48,84,-155,2,63,0.194,-0.253,0.003
-132,-55,147,70,4,23,66,0.579,0.002,0.737
44,48,-154,45,81,-87,8,-0.176,-0.356,-0.484
-46,-15,-45,147,155,-1,114,-0.37,-0.116,0.6
-90,-18,75,148,162,-58,-71,-0.117,0.192,0.274
-133,-69,69,17,53,27,-9,-0.145,0.179,0.392
-25,-39,90,95,-8,-69,-149,-0.918,-0.044,0.41
-128,-1,-162,93,125,39,110,-0.004,0.42,0.965
-48,-123,-137,118,169,-30,-18,0.506,0.603,0.038
45,-1,-114,82,37,-64,59,-0.233,-0.545,0.918
45,-77,-48,89,-52,-9,102,0.006,-0.602,0.149
-24,-78,-45,17,-90,18,143,0.158,0.13,-0.328
15,-64,-42,61,-165,-32,-112,0.041,0.282,0.847
-123,-28,-110,41,-84,105,155,-0.067,-0.119,0.215
-120,52,1,129,-122,-52,-105,-0.151,-0.112,0.325
-37,42,97,-1,-82,88,18,-0.365,-0.702,0.55
-135,-66,62,110,-18,-85,-14,-0.363,0.261,0.118
-20,-102,-89,75,104,-33,81,-0.423,0.539,0.669
37,-22,164,58,-119,102,-66,-0.486,0.202,0.056
48,-41,-104,81,60,110,-136,-0.41,0.309,0.142
42,-76,18,66,78,107,-111,-0.406,0.241,0.098
-103,-92,17,111,118,40,155,-0.458,-0.335,0.371
-110,-62,130,83,-164,84,108,-0.131,0.012,0.914
-136,-3,104,27,5,82,19,-0.242,0.671,-0.192
-6,-36,-151,139,54,-9,110,0.626,-0.084,0.001
-73,-5,76,100,-124,65,-8,-0.55,0.458,0.616
6,-40,-104,9,-135,3,132,0.087,-0.118,0.02
-31,52,156,101,104,62,2,0.858,-0.488,0.293
3,8,51,89,101,-20,144,-0.719,0.589,-0.018
50,-22,-143,147,10,-79,-155,0.014,-0.01,-0.227
-77,27,-89,35,-143,73,22,-0.096,-0.526,0.527
-28,-17,112,91,-119,112,-45,-0.177,0.275,0.782
35,-69,137,10,-99,105,-128,0.3,0.094,0.738
-20,-81,17,114,38,-55,78,-0.381,-0.112,0.888
-54,7,-4,63,-15,-63,-3,-0.531,0.275,1.144
-46,-118,61,19,23,-5,-101,-0.495,-0.724,0.66
-113,-10,-47,69,143,70,167,0.638,-0.49,-0.312
-114,-45,7,17,-10,-90,123,-0.546,0.065,0.52
22,-111,-152,125,-49,19,19,-0.935,0.309,0.012
-101,6,79,50,-17,40,145,-0.158,-0.224,0.923
22,33,89,50,127,104,6,-0.689,0.224,0.155
49,42,-43,29,68,87,104,-0.105,-0.23,0.604
-52,-66,-16,48,165,-18,103,0.067,0.386,0.131
-127,53,139,29,-168,-7,-80,-0.568,-0.05,0.502
-137,-26,13,67,-17,-5,-53,0.323,-0.242,0.162
44,5,-50,-1,89,-21,-145,-0.346,-0.411,0.653
-9,-91,-13,102,127,-26,23,-0.083,0.82,0.371
-2,-15,44,56,28,-12,34,-0.581,0.434,-0.261
-15,-42,158,40,86,-41,-75,-0.413,-0.165,-0.142
-89,-69,87,135,-53,4,-90,-0.046,-0.028,0.272
-125,16,108,2,-104,15,-78,-0.147,-0.051,-0.185
-113,28,168,118,121,-66,-58,0.215,-0.432,-0.16
39,-116,-119,1,38,61,-142,0.544,-0.47,-0.041
-130,-75,-13,8,138,-11,65,0.446,0.383,0.5
6,-9,107,97,132,17,55,-0.491,-0.233,0.442
19,-88,37,36,0,-55,-91,-0.297,0.017,0.946
-127,-47,1,68,-48,-84,-120,-0.567,-0.17,-0.153
-78,-19,-120,124,170,-75,67,0.518,0.204,0.716
-40,-97,67,94,-167,75,-152,-0.416,0.697,-0.287
-68,-22,-138,92,53,-11,-155,0.193,0.124,0.489
-65,-44,-56,60,129,69,36,-0.538,0.09,0.272
-83,-54,77,28,-2,90,-23,-0.07,-0.105,-0.321
-70,-122,4,14,137,40,142,-0.377,-0.382,-0.198
-132,35,34,90,144,67,30,0.049,-0.285,-0.372
-36,44,91,96,-134,-79,-174,-0.013,-0.234,0.871
-15,50,-76,110,-19,44,-21,-0.207,0.451,0.188
-57,54,-48,118,12,118,65,-0.452,-0.026,0.48
4,-61,54,45,132,90,-129,-0.352,-0.437,0.676
-37,-4,141,129,-151,-41,-165,0.384,0.189,-0.109
25,0,-83,86,-50,-53,-95,-0.234,-0.036,0.714
21,1,100,23,28,31,165,-0.043,-0.088,0.909
-96,-62,82,99,-174,-77,-106,-0.369,-0.287,0.919
-109,-49,13,58,107,-73,139,-0.538,-0.07,0.142
-74,-91,-60,50,-145,58,-21,0.552,-0.022,-0.432
27,52,58,24,-64,18,-23,0.513,0.511,0.559
-88,38,-25,82,95,77,84,0.693,0.009,0.818
9,-94,1,54,-86,-88,-89,-0.053,0.575,0.277
-35,27,-140,110,74,-40,-48,-0.024,0.155,0.556
-131,-114,-69,97,114,12,112,0.501,0.109,0.705
-96,-79,29,50,2,-34,58,-0.635,-0.353,0.13
34,-6,105,136,-93,23,174,-0.069,-0.225,0.827
-133,39,-38,26,7,66,92,-0.218,-0.537,0.392
-11,44,113,28,-62,64,113,0.352,0.035,0.185
-125,-3,128,68,-49,-9,37,0.22,-0.42,-0.194
-124,-102,166,11,-72,-20,-171,0.224,-0.314,0.87
-105,-117,-164,53,-94,41,-98,0.351,0.416,0.386
-55,-110,-149,75,-166,55,-152,0.674,0.309,-0.192
17,-28,-123,112,-73,97,-146,-0.483,0.226,0.194
-117,-91,27,106,143,94,-19,0.699,0.537,0.062
2,-6,-47,-3,-145,48,-101,-0.201,-0.253,0.563
48,38,-20,144,-166,26,50,0.168,-0.225,1.103
10,-11,-172,45,-51,70,174,-0.559,-0.222,0.974
-39,-93,139,133,136,27,174,0.003,-0.875,0.47
-19,11,-6,93,-58,94,142,-0.476,-0.607,0.11
-66,-11,96,55,-128,-1,-41,-0.284,0.652,0.465
18,20,92,2,53,70,26,-0.179,-0.127,0.998
5,37,125,101,28,65,43,0.064,0.227,0.953
-124,-1,66,147,-64,8,-81,-0.203,-0.558,0.268
-63,-9,72,92,105,28,-146,-0.017,0.037,-0.003
-33,-111,25,60,136,-63,125,-0.243,0.031,0.705
-10,41,35,27,-111,0,-171,-0.44,0.651,-0.054
-141,-35,116,0,-167,78,-124,-0.537,0.416,0.172
-59,-93,-74,3,168,-28,-55,-0.244,-0.362,0.144
-139,37,31,5,-87,-12,-20,-0.548,0.465,0.545
-12,-120,124,1,-107,44,-7,0.061,-0.716,0.871
18,-105,-162,104,-130,98,68,-0.172,-0.437,0.279
-82,-57,50,10,146,48,63,-0.354,-0.2,0.608
-60,-21,160,72,-142,64,104,-0.18,-0.111,-0.147
-63,-70,-76,118,-82,-29,111,-0.455,-0.242,0.625
32,-76,95,22,17,-57,122,0.498,0.1,0.383
-88,-38,-127,8,171,12,139,-0.223,-0.661,0.684
-84,33,109,90,-65,98,152,-0.121,-0.495,0.447
-29,29,52,135,157,13,-28,0.11,-0.386,0.515
-8,38,-25,35,74,111,126,-0.194,-0.131,0.23
-2,-24,-71,101,173,-52,-37,-0.652,-0.123,0.741
-84,56,72,114,79,-7,24,0.545,0.556,0.592
-40,-26,30,66,6,59,-73,0.145,0.444,0.323
-47,11,-79,110,-36,-51,87,0.331,-0.43,0.32
-15,-58,-36,5,-159,97,-65,-0.029,0.141,0.588
-71,-101,73,48,129,-45,-122,0.465,-0.178,0.563
-116,41,-173,50,33,-11,-136,-0.255,0.76,-0.017
-71,-19,-98,29,95,-27,-99,0.271,-0.366,0.664
-71,19,-2,109,-39,48,-70,-0.344,0.224,0.67
-17,52,-1,43,115,25,-67,-0.24,0.911,0.492
-59,-91,164,130,-28,-87,-122,-0.331,0.264,0.597
-137,43,-76,3,125,-83,116,0.469,0.13,0.472
-95,-29,-80,57,94,83,4,0.2,-0.548,-0.428
-34,-102,50,75,-52,-2,43,0.48,0.398,0.233
-30,35,159,74,21,-10,-124,0.519,-0.071,0.217
-54,6,-98,109,164,44,94,-0.13,-0.653,0.382
27,-32,-158,100,124,-33,148,-0.156,-0.414,0.847
-134,-17,-130,144,112,96,-9,-0.693,-0.366,-0.035
-72,-7,110,2,109,95,156,0.587,0.227,0.073
49,58,99,130,169,-7,-168,0.508,-0.195,0.488
-8,-102,-96,108,144,6,76,-0.762,0.464,0.48
-1,-108,-141,5,125,8,42,-0.267,0.597,0.562
-54,-103,68,36,-159,10,-34,0.007,0.045,0.006
-40,-69,94,8,0,43,-23,-0.678,-0.211,0.826
-12,-47,171,92,67,11,-26,0.201,-0.201,0.505
-3,25,70,102,-148,-57,22,-0.56,-0.423,0.803
-34,53,163,149,156,-39,-105,-0.459,-0.222,0.385
-28,13,50,102,143,-33,-167,-0.766,-0.037,0.543
29,-76,-135,149,9,108,-1,0.023,-0.418,0.559
-67,-106,-166,3,-16,47,-140,-0.03,0.03,0.373
-88,-37,-108,51,102,-27,-136,0.161,-0.392,0.896
41,-91,82,12,151,-31,-172,-0.243,0.782,-0.284
29,25,67,53,5,113,160,0.351,0.367,0.208
-124,-104,24,9,80,-29,-113,0.543,0.269,0.381
-43,-8,108,113,36,-60,-22,0.144,-0.509,0.401
-83,-57,-137,3,154,-40,-16,-0.021,-0.172,0.328
4,47,-15,122,46,-37,11,-0.354,-0.481,0.363
-61,-45,150,47,-149,-87,-48,0.239,0.308,0.149
31,46,87,28,54,-21,-70,-0.036,-0.071,0.37
-100,3,-115,24,103,47,93,0.136,-0.363,-0.119
-18,-25,63,136,141,-78,-54,-0.092,-0.129,0.628
-63,-97,149,85,-62,-79,-66,0.039,-0.127,-0.129
-31,-99,-100,87,111,-37,-126,0.668,-0.279,0.773
23,-39,134,106,169,60,-147,0.075,0.201,0.682
20,-26,41,141,-60,14,152,-0.098,-0.31,-0.038
-24,-52,17,133,132,26,-79,0.693,-0.467,0.217
-141,33,7,142,-88,-30,-43,-0.354,0.415,0.577
44,-48,-79,82,97,15,-39,0.575,-0.46,0.33
-116,-47,-79,130,32,30,100,0.331,0.108,-0.148
-6,-26,98,52,54,79,93,-0.087,-0.443,0.35
-15,-40,-122,126,138,-33,-122,0.072,0.746,-0.022
-126,-93,150,98,86,-27,-158,0.043,0.101,0.406
-37,-39,123,92,113,62,138,-0.425,0.164,0.142
-39,51,112,80,-166,-38,-101,0.446,-0.006,0.873
-13,-94,-103,105,-62,27,5,0.515,-0.042,0.755
-106,54,84,109,-154,30,-41,-0.257,0.132,-0.041
50,59,101,-3,87,-84,-1,-0.198,-0.196,0.059
-54,36,-48,65,-30,-79,-130,0.006,-0.182,0.214
31,34,152,107,-44,-49,-154,0.116,-0.55,-0.471
-76,-62,122,75,-61,15,126,0.166,-0.33,0.893
-65,-76,75,91,126,37,100,-0.573,0.143,0.396
2,26,122,108,-52,-16,-90,-0.207,0.424,0.829
19,7,33,68,112,118,-81,0.29,-0.454,0.643
-76,10,54,124,73,46,125,-0.019,0.125,-0.081
-63,51,131,84,17,-61,-162,0.11,-0.542,0.744
-43,-100,172,4,142,56,170,0.503,0.376,0.18
40,-59,122,38,-161,66,-130,0.32,0.305,-0.149
22,17,-57,80,2,-89,-154,0.279,0.606,-0.071
29,-34,-148,89,60,89,-25,-0.343,0.539,-0.418
-17,50,127,30,-13,113,-120,0.495,0.241,0.847
-90,-24,-95,93,-102,-84,90,0.054,-0.322,0.569
-98,-22,-9,104,52,-34,162,0.093,0.091,-0.166
6,9,-93,62,78,71,7,0.267,-0.616,0.31
-23,3,167,29,-4,54,53,0.206,0.052,-0.137
20,-84,-132,78,-138,89,-13,0.316,0.035,0.647
-11,-19,12,127,65,98,-50,0.323,0.248,0.541
-24,-121,167,106,32,87,-51,-0.393,-0.641,0.383
-134,-37,-120,115,-124,-62,50,-0.724,-0.031,0.246
11,-112,66,20,118,65,-24,0.126,-0.632,0.744
-57,59,-105,48,-46,-66,-108,0.005,-0.078,0.099
-89,39,30,67,-17,-74,-127,0.459,-0.068,0.333
-104,-123,106,102,92,110,-174,0.175,0.513,-0.015
-53,-80,131,85,78,69,10,0.006,0.003,0.79
-138,27,-2,60,-115,113,-118,0.21,0.473,0.458
-84,-66,-170,54,-56,96,138,-0.541,-0.169,0.141
30,57,-155,95,163,88,117,0.495,-0.278,1.112
-82,58,104,45,1,-34,137,0.551,-0.046,0.612
-20,-8,-45,149,66,108,-131,-0.158,-0.024,-0.179
35,-44,93,147,141,116,-83,-0.219,0.146,0.368
-90,11,5,41,-152,3,162,-0.362,0.266,0.296
-13,52,-109,9,-101,-69,-70,0.323,0.185,0.749
-11,-84,-164,130,82,24,-14,0.459,0.308,0.032
-94,-9,-67,96,155,67,60,0.179,-0.019,-0.28
-50,-92,-40,91,-62,98,-116,0.576,0.132,0.199
10,-85,-91,117,-155,95,-127,0.254,-0.075,-0.038
9,-72,-80,98,69,-8,-155,0.322,-0.18,0.177
16,32,119,104,163,-47,-74,-0.275,0.276,0.613
6,-84,167,70,104,-79,162,-0.382,-0.516,0.174
-53,32,-61,94,-68,-90,-80,-0.577,-0.284,0.754
-72,-118,91,140,30,103,-166,-0.626,-0.246,0.609
-133,28,-162,76,161,71,105,-0.442,-0.535,-0.201
-42,37,-60,91,170,20,-144,-0.435,-0.03,0.39
45,-114,-16,6,85,-57,-47,-0.174,-0.629,0.964
-52,-29,-115,134,-2,74,-146,-0.343,-0.15,0.711
19,-63,-161,89,32,-43,-116,-0.481,0.43,0.731
-87,42,78,131,11,27,-137,-0.317,-0.502,0.372
-61,-51,3,56,-88,4,-95,-0.155,-0.206,0.803
-124,-56,-68,59,-73,-23,30,-0.285,0.305,0.223
-50,-89,-19,76,-166,3,166,-0.409,-0.023,0.7
-66,40,117,33,-146,-27,80,-0.439,0.517,0.575
-17,-45,81,141,-81,111,47,0.521,0.003,0.521
-21,-67,99,71,164,73,130,-0.56,-0.267,0.527
-82,-73,6,48,-140,-23,-134,0.002,-0.433,0.49
28,49,-137,136,-25,-55,97,0.247,0.417,0.684
44,-22,-119,7,63,-58,9,-0.075,-0.734,-0.21
-129,-47,-60,90,166,81,12,-0.354,-0.107,-0.324
-50,-32,-28,81,-154,78,-70,0.082,-0.028,0.809
-14,-14,172,104,18,101,24,0.388,0.134,0.657
19,-86,-116,66,28,-47,104,0.145,0.009,0.231
-113,-61,125,102,-34,106,59,0.126,-0.758,0.182
-35,19,148,23,59,-79,118,-0.293,0.118,0.435
15,14,-110,-1,-107,-87,101,-0.494,0.845,0.323
-57,-67,35,109,129,-20,20,0.46,0.079,0.549
-105,-76,-160,19,-83,-4,40,-0.089,-0.37,0.817
-120,-10,57,59,-170,107,-66,-0.566,-0.047,0.155
-38,-11,-142,60,-50,-63,5,0.266,0.058,-0.209
43,-34,-166,6,-154,-66,40,-0.558,-0.07,0.196
-87,-80,-55,112,-44,80,-102,0.622,-0.098,0.208
-90,-25,83,87,-53,4,-91,-0.046,0.147,0.871
-114,18,-27,81,45,19,161,-0.238,0.562,0.943
36,-28,15,60,53,40,-120,0.069,-0.062,0.202
47,-75,99,14,63,5,54,-0.056,0.431,1.038
-2,-40,75,75,138,-20,60,-0.427,0.473,-0.241
-79,24,-159,87,71,12,-29,0.655,-0.433,0.578
-67,44,7,91,54,-90,10,-0.024,0.176,0.225
-84,8,-100,141,88,102,-173,-0.294,0.34,0.298
-61,19,-49,110,-12,73,1,-0.082,0.487,0.621
1,51,84,99,-141,-22,-15,0.33,0.08,0.421
36,-55,150,38,124,-44,63,-0.715,-0.794,0.42
49,-111,63,20,-151,77,107,-0.59,-0.247,-0.04
9,-50,-146,51,149,9,-120,-0.191,0.11,0.944
-7,-36,-57,120,157,-86,162,-0.17,-0.73,0.291
-124,-26,172,25,128,104,172,0.134,-0.526,0.521
-28,-37,-168,138,78,-75,44,-0.596,0.07,1.092
-69,-95,-80,64,153,101,-118,-0.629,0.417,0.744
-85,32,68,14,-81,44,-37,-0.114,0.753,0.753
18,-25,-99,75,-123,119,154,0.08,-0.216,1.249
4,-82,155,5,122,117,-128,0.043,-0.062,0.942
-9,-45,21,99,169,-38,-13,-0.162,0.118,0.982
-48,-25,58,62,164,-23,-18,-0.126,0.059,1.049
10,-76,-44,89,81,-69,148,-0.215,-0.053,1.211
-41,-12,-93,49,-167,119,13,-0.238,0.552,0.917
32,-25,-80,137,-88,53,157,0.281,0.203,0.854
-31,50,140,24,21,-76,-89,0.27,-0.191,1.103
-72,44,-33,76,-156,85,164,0.044,0.307,0.736
6,-40,-166,139,40,100,-53,-0.299,-0.712,-0.28
-129,-76,167,149,51,-52,53,0.24,-0.431,0.562
-50,48,90,135,46,-50,119,-0.325,0.331,0.309
13,-3,83,48,-87,12,140,-0.153,-0.486,0.517
-8,-51,116,72,-65,-36,74,0.378,0.411,0.292
48,38,-114,89,122,54,60,-0.499,-0.015,0.529
-45,-36,9,71,-104,-63,67,0.76,-0.302,0.399
-122,-85,-16,67,29,-57,-45,0.295,0.326,-0.078
-47,-77,62,31,-33,65,76,0.373,0.466,0.127
13,54,46,20,39,81,165,-0.345,-0.349,-0.465
-102,58,-102,128,5,20,80,-0.198,-0.173,0.933
-59,-111,-8,69,109,107,-57,-1.029,-0.062,0.016
-78,-27,64,112,-128,27,70,-0.127,0.426,0.561
-65,-46,51,33,-10,-88,1,0.531,0.497,0.595
39,-37,116,82,-66,86,7,-0.019,0.119,1.02
-108,37,-77,73,-83,-82,-54,0.046,0.415,0.053
36,-76,37,114,121,-15,68,-0.391,0.017,0.71
11,37,-114,18,-8,17,-34,0.258,0.407,0.611
-101,-98,2,10,-171,-25,-74,-0.408,-0.039,-0.051
-139,-109,-90,12,46,-5,132,-0.705,0.3,0.208
-41,51,128,-2,-147,-75,60,-0.618,0.278,0.107
-89,-77,-26,1,-72,-31,-54,-0.76,0.141,0.81
38,-4,19,111,174,36,-166,0.296,0.055,0.529
19,-107,-30,92,41,-89,55,0.285,-0.442,0.574
46,16,-113,62,65,-20,-111,0.742,0.301,-0.134
-119,-26,122,28,-129,64,70,-0.374,0.249,0.083
-48,-13,6,71,-13,-33,-61,-0.066,0.362,0.982
-115,-24,-51,108,-104,108,102,-0.783,-0.524,0.406
23,-2,118,43,77,-51,-173,-0.034,0.687,-0.21
-57,0,-156,6,-157,-40,132,0.088,-0.288,0.869
-40,-32,149,133,-63,95,64,-0.206,0.724,0.64
35,-80,127,74,26,-74,-73,-0.707,0.222,0.626
-112,-36,99,5,57,-50,21,0.309,0.865,0.257
27,-53,-65,-1,-130,112,89,0.526,-0.067,-0.408
-59,-54,-85,32,138,111,-28,-0.682,0.109,-0.146
-29,34,16,77,29,47,-169,-0.088,0.65,0.306
42,-94,-138,16,37,92,101,-0.372,-0.242,0.353
-44,-48,1,149,-110,-63,139,0.144,-0.659,0.543
-42,-62,-22,29,-90,-37,160,-0.58,0.265,0.205
-73,30,-15,84,7,-44,163,0.339,0.136,-0.275
-100,-103,139,94,-19,21,83,-0.26,-0.64,0.116
-34,-2,139,100,-56,7,-25,0.257,0.859,0.06
31,6,-43,142,-79,-31,-174,0.188,-0.5,0.331
11,-101,-45,61,-67,101,-64,0.18,0.53,0.296
-128,-43,-67,68,70,114,68,-0.781,-0.082,0.728
-77,-23,-163,70,157,72,-172,-0.543,-0.233,0.074
44,-83,144,110,-77,-9,48,0.098,-0.171,0.548
-22,-4,128,115,-10,86,-156,-0.269,-0.186,-0.042
-136,-121,86,43,174,58,98,0.373,-0.471,0.013
7,25,-146,19,97,103,-145,0.193,0.156,0.922
27,29,82,36,-121,65,100,0.457,0.101,0.437
-10,10,-123,74,49,-48,149,0.403,-0.147,-0.017
-140,-62,112,37,88,6,-9,0.101,-0.598,1.02
-129,-78,-112,71,51,19,127,0.609,-0.297,0.098
-64,50,-162,58,-101,-51,167,0.558,0.166,0.958
-46,18,71,107,169,-81,73,0.428,0.501,0.943
-101,10,-105,130,92,-90,-4,-0.146,-0.291,0.441
-104,14,-22,149,115,41,-15,-0.435,0.455,0.286
-74,12,-130,101,27,-23,26,-0.2,-0.526,0.619
-67,8,-70,38,-46,70,48,0.012,1.001,0.488
-4,-74,56,97,56,-4,167,0.127,0.405,0.662
32,-50,-41,36,7,-9,142,0.134,0.346,0.782
-128,-42,52,128,-73,-15,-113,-0.107,-0.037,0.021
2,-38,-19,108,72,-2,159,-0.083,0.461,0.685
18,9,145,97,117,-15,148,-0.091,0.056,0.118
-77,-116,-114,78,34,-57,42,-0.397,-0.334,0.614
18,36,95,147,133,-23,70,0.05,-0.073,0.503
-84,58,112,68,11,101,-34,-0.441,-0.644,0.764
-45,-99,-25,42,33,-87,-29,0.05,-0.146,0.82
-76,29,121,121,-49,92,-85,-0.426,0.261,0.151
-30,-84,3,111,-21,34,-62,-0.102,-0.094,0.077
-131,-74,-39,138,134,-84,35,0.701,0.189,0.565
12,-38,99,3,-96,-14,77,-0.183,-0.152,0.121
-113,-35,-95,7,6,-38,174,0.207,-0.921,-0.084
-20,-101,107,121,169,6,-141,0.227,-0.45,1.01
-119,-47,91,111,-122,1,0,-0.286,0.076,-0.121
-42,57,2,41,73,-13,-103,-0.21,0.426,0.037
7,-35,23,93,63,-52,-156,0.354,0.263,-0.193
-8,-29,-144,61,-87,-25,-137,-0.541,-0.288,0.662
10,-39,-112,97,-26,44,-62,-0.029,-0.329,0.776
-122,-6,45,87,10,84,-23,-0.187,0.243,0.626
-51,-46,150,118,52,0,-87,-0.464,-0.098,-0.348
-98,39,9,46,154,-53,120,-0.251,-0.053,0.532
3,37,89,98,70,92,40,-0.089,0.175,0.816
-95,-102,-161,141,-120,73,-170,-0.212,0.411,0.116
-138,-4,-135,55,67,34,-15,0.198,0.026,-0.031
-121,-6,157,18,-122,-53,0,0.197,-0.063,0.769
-78,-90,-8,139,-84,62,92,-0.177,0.859,0.447
24,-92,-63,69,-50,33,-54,-0.444,-0.678,-0.131
16,56,72,12,-113,22,132,0.287,-0.11,0.767
-45,48,88,20,-71,46,70,-0.728,0.17,0.246
-12,-21,129,-1,-124,57,162,-0.521,-0.603,0.366
-3,-66,131,-2,64,-87,111,-0.488,-0.04,-0.165
29,-1,92,84,-27,57,-161,0.102,0.577,-0.066
11,32,77,130,-61,88,-43,-0.561,-0.4,0.374
-59,-23,-133,102,166,-36,35,-0.575,0.479,0.113
-14,-6,-83,143,37,-9,-144,0.042,0.135,0.603
-73,28,24,142,-120,106,-118,-0.374,0.29,0.443
37,-92,72,7,-1,-76,93,0.463,-0.938,0.249
-99,-91,-131,49,138,57,-122,0.87,0.097,0.161
-28,27,114,143,-143,-53,-108,-0.664,0.245,0.293
-113,50,-97,49,-18,67,64,-0.172,0.298,0.811
39,-31,-121,91,-109,-2,1,0.066,-0.094,0.267
-104,-64,50,8,-162,43,48,0.132,0.419,0.935
-71,35,-167,77,-41,-9,120,-0.189,-0.194,-0.085
12,-121,68,104,75,-82,-74,-0.015,-0.383,-0.086
-98,-123,-135,144,151,51,103,0.078,0.867,-0.234
-117,-43,-63,111,-170,-55,-93,0.007,0.283,0.929
-77,-90,-95,129,110,57,2,-0.412,-0.38,0.287
-113,-27,74,33,26,111,-79,-0.12,-0.632,0.151
28,39,120,120,-49,82,-56,-0.963,0.452,0.251
49,-103,157,137,70,-83,-146,-0.666,-0.286,0.101
-93,-81,-96,72,-160,41,50,0.138,-0.022,0.375
11,-56,111,8,-53,-5,26,-0.333,0.044,1.043
-102,57,-27,53,5,90,-97,-0.039,0.185,0.843
-141,-69,168,93,-68,26,109,-0.056,-0.492,0.944
-112,46,72,15,-97,82,-164,-0.129,0.732,0.222
-34,30,35,123,-172,-36,-112,0.226,0.059,-0.085
-97,-84,105,34,-83,35,-118,-0.275,0.444,0.274
11,18,-125,117,-170,65,-118,-0.363,0.096,0.738
-51,-32,134,82,-69,62,31,-0.304,0.29,1.111
45,50,-95,6,-158,-50,-39,-0.089,-0.225,1.225
18,-21,-166,119,75,110,54,-0.404,0.147,-0.043
-16,-87,-43,76,-125,74,-69,-0.734,0.469,0.638
-18,12,124,21,-92,66,-152,0.131,-0.154,0.313
-55,-13,-16,130,148,43,174,-0.075,0.399,0.829
-118,-89,-92,131,-39,-11,71,-0.143,-0.269,0.946
-14,15,-77,45,-161,8,9,-0.75,-0.268,0.207
-34,36,-162,67,-90,-18,-16,-0.053,0.18,0.848
-54,-38,153,78,99,114,-16,-0.474,-0.402,0.577
-114,1,93,46,96,16,9,-0.104,-0.107,0.542
-80,41,5,58,140,-85,-89,0.358,0.095,0.415
-5,-8,89,44,86,93,-97,0.08,-0.82,0.111
-5,-100,42,38,-82,117,49,0.009,0.36,0.9
-36,-39,52,52,111,46,-131,-0.066,-0.662,0.506
-20,-83,105,20,-75,67,-43,-0.606,0.321,0.347
28,3,33,110,-26,101,-53,0.491,-0.031,0.17
-40,57,100,8,117,-12,-161,-0.813,0.053,0.666
-70,12,-98,50,-41,-53,166,-0.386,0.168,0.708
15,-119,78,56,119,111,-2,-0.359,0.409,0.665
10,-101,-127,20,102,-31,-147,-0.355,0.526,0.932
-81,-121,119,23,14,51,-84,0.18,-0.28,-0.159
28,30,123,96,-74,-11,14,0.17,0.374,-0.079
-80,-14,41,30,77,53,-108,0.244,-0.362,0.627
-85,46,16,114,-48,-36,0,-0.507,0.573,0.628
-111,37,57,46,89,64,91,-0.349,0.328,0.617
-97,12,25,23,-137,46,81,0.368,0.22,0.406
-73,52,-102,15,-12,-30,-154,-0.031,0.001,0.666
-39,45,-32,65,28,61,-108,-0.336,-0.067,0.333
36,-6,-13,96,-145,43,48,-0.529,-0.574,0.681
-6,8,123,53,20,106,-79,0.343,0.523,0.566
-45,-123,-102,96,-148,58,113,-0.592,-0.464,0.432
-111,-107,102,87,-167,-66,35,0.194,-0.123,0.763
-24,-122,-6,13,0,58,32,0.111,-0.773,0.166
-131,3,39,69,-60,102,62,0.79,-0.116,-0.051
-25,-25,35,36,109,-81,10,0.462,0.436,0.508
-132,-110,-3,105,101,83,-85,-0.339,-0.358,-0.218
1,-117,-136,32,-116,-23,126,0.769,0.24,0.119
-4,-44,104,64,158,-85,31,0.097,-0.284,0.586
-67,41,73,41,66,67,-78,-0.069,-0.046,0.061
4,-31,-98,131,-149,90,-123,-0.424,0.007,0.842
-119,-117,151,128,-111,-76,1,-0.081,-0.611,0.213
7,43,109,68,-104,65,150,0.197,-0.238,0.654
-16,-30,58,39,-151,-34,-77,-0.65,0.388,0.286
-138,-56,-163,136,131,17,-62,0.091,-0.25,0.287
-69,-96,-97,142,21,3,107,-0.219,0.014,0.414
-42,16,-139,60,-11,20,-82,-0.153,0.356,0.298
-22,-96,1,82,103,19,-27,0.917,0.269,0.321
-138,-20,-158,83,-66,-60,28,-0.068,-0.143,0.816
41,-20,47,36,-88,105,-165,0.24,-0.308,0.499
-39,-98,-2,58,169,-9,-112,-0.374,-0.618,0.158
14,13,59,142,144,65,27,-0.051,0.579,0.581
-57,-79,97,66,64,32,-75,0.069,0.276,-0.032
7,-64,15,0,-105,-86,130,-0.191,-0.677,0.413
-88,28,-79,114,3,33,-148,0.542,-0.629,-0.097
29,40,152,57,-161,102,-108,-0.813,-0.309,-0.071
-7,-118,171,139,49,-49,9,0.547,-0.772,0.156
31,-39,68,132,62,-23,119,-0.624,-0.237,0.432
-7,21,-162,42,-136,-51,-100,-0.413,-0.591,0.267
-141,1,25,30,97,30,141,-0.438,-0.142,0.969
-51,24,70,32,-21,12,59,-0.352,0.634,0.845
-61,-49,163,41,10,80,116,0.023,-0.068,0.444
-32,-110,-31,141,160,14,-136,-0.41,0.175,0.225
-108,-115,106,41,-17,36,33,-0.428,-0.193,-0.008
-38,-87,-139,53,30,54,13,0.108,-0.47,0.329
19,45,38,107,155,-75,-135,0.912,-0.152,0.804
-99,-92,-130,120,144,-38,-54,0.376,0.908,-0.145
-77,55,101,143,-153,72,-3,-0.264,0.031,0.301
7,-9,-129,75,19,25,-29,0.128,-0.832,-0.17
41,42,97,17,65,104,166,0.33,0.35,0.416
-64,-10,-135,85,158,4,-112,0.104,-0.381,-0.177
-64,-11,53,109,-53,5,-126,0.491,-0.058,0.335
34,22,-5,145,-93,110,-92,0.235,0.096,-0.231
-41,9,-93,38,10,92,-98,-0.444,0.342,-0.23
-78,-34,-138,134,134,7,38,0.481,0.328,0.53
15,-56,-75,112,129,-9,35,-0.163,-0.011,0.799
-1,-25,-111,18,135,-67,-90,-0.166,-0.364,0.682
-26,12,-20,82,-166,27,100,-0.18,0.297,0.956
-136,-58,113,38,-145,-55,-151,0.544,-0.12,0.854
-18,-29,69,57,104,62,46,0.694,-0.316,-0.319
42,27,101,21,-113,57,-121,-0.389,0.258,-0.176
-125,26,-153,95,164,-57,-57,0.47,0.055,1.172
-132,56,-20,1,98,5,-164,0.151,-0.487,0.899
-15,0,-21,101,-104,53,132,-0.304,0.102,0.843
-50,-46,171,127,-158,-16,120,-0.486,-0.339,0.29
-13,-29,-170,50,23,-35,74,0.396,-0.478,0.144
-44,43,67,27,-7,-49,96,-0.504,-0.329,0.06
-62,-105,-119,86,-18,34,-36,0.586,0.202,0.493
-36,-37,81,89,-104,-72,174,0.227,0.523,0.385
30,-79,132,131,32,-14,-113,-0.536,-0.559,0.318
-56,30,-109,7,115,11,160,-0.116,-0.722,0.122
-25,46,-45,46,95,8,158,0.006,-0.28,0.562
-132,-38,-108,90,109,20,-131,0.191,-0.602,0.523
-40,-29,-167,28,-136,9,134,-0.065,-0.116,0.215
12,19,-88,113,60,1,163,-0.019,-0.003,1.183
44,-120,69,100,38,-14,-115,-0.477,-0.326,0.72
19,-111,-42,63,76,-27,-136,0.631,-0.375,-0.109
-54,32,-2,86,-13,51,-141,-0.568,-0.248,0.714
-127,-96,-147,7,37,42,-29,-0.579,0.461,0.345
-3,33,-162,126,-132,8,81,-0.833,-0.008,0.017
-108,26,80,46,86,1,107,-0.324,-0.094,0.994
-4,-107,99,52,-123,-57,-19,0.659,0.212,0.556
-41,-15,113,96,-131,-34,1,0.235,0.428,0.425
-102,-112,-34,33,-72,112,-124,0.064,0.074,0.929
-17,-43,142,92,-142,91,27,-0.08,0.382,0.266
-64,-56,-93,51,174,-32,-170,0.625,-0.454,0.917
2,20,-131,-2,-101,44,54,0.518,0.321,0.541
-102,-82,-121,5,24,-17,174,0.038,0.459,0.728
-112,1,107,77,-71,-27,-72,0.393,0.571,0.108
-17,-81,61,47,149,-46,93,0.162,-0.083,0.366
-29,40,-35,125,-140,51,75,0.079,0.744,-0.296
-83,-43,-96,52,-55,15,50,-0.262,-0.032,0.513
-96,-62,-57,146,121,-41,-16,-0.369,-0.204,0.308
-72,-84,-46,-1,10,-26,-43,0.593,0.451,-0.06
32,-16,-148,116,43,64,5,0.001,0.163,-0.329
-29,-15,-138,3,-161,-43,172,0.038,-0.041,0.682
-33,-81,1,40,-34,-84,-84,0.163,-0.33,0.198
-81,17,-39,15,38,-1,55,0.538,-0.477,0.337
16,22,40,8,55,80,173,-0.481,-0.039,-0.276
25,-102,72,45,-68,22,-69,-0.388,0.039,0.061
-44,-16,30,38,-105,114,-110,0.037,-0.87,-0.143
25,-77,95,103,125,25,-119,0.011,0.232,0.864
-139,4,-41,117,94,2,159,-0.424,0.327,0.102
-138,46,15,96,153,41,-136,0.308,0.222,0.212
-34,-100,-145,137,74,13,154,0.056,-0.004,1.116
20,-10,1,5,104,-77,131,0.728,0.296,0.246
-107,-93,80,72,86,-5,89,0.009,-0.087,0.913
46,-76,28,82,25,-84,-55,0.017,-0.245,0.904
30,30,111,71,132,-52,19,-0.649,0.329,0.207
0,-1,-123,-1,-81,87,-4,-0.217,0.138,1.006
1,-119,-39,65,-56,1,-12,0.221,-0.431,0.392
-12,-61,-149,-1,-91,87,73,0.915,-0.183,0.377
-110,-104,166,144,-142,-73,-28,-0.166,0.621,0.161
-111,-94,156,14,-99,-52,-97,0.425,0.172,0.769
-66,6,132,111,67,21,22,-0.083,0.354,0.434
-91,-26,-152,-1,-110,114,-164,0.665,-0.127,0.409
-122,12,0,102,102,86,-64,-0.328,0.184,0.805
-44,2,35,68,64,70,-62,0.537,-0.511,-0.213
-4,-45,42,100,-168,-11,-31,0.277,-0.252,0.964
44,-47,-160,111,108,109,-164,-0.304,-0.276,0.007
-134,-28,105,54,31,31,3,-0.091,-0.436,-0.062
39,-104,70,27,-67,-8,-172,0.168,-0.399,0.035
-130,50,157,34,-3,83,-15,0.033,0.599,0.608
34,-54,-9,16,-78,-77,-162,-0.096,-0.101,0.035
-132,16,2,56,12,32,-128,-0.342,-0.753,-0.205
-44,33,-73,47,-81,87,66,0.478,0.282,-0.087
34,-100,-46,144,-57,-2,-27,-0.495,-0.021,0.735
-128,-74,-108,145,130,22,63,-0.613,-0.34,0.384
-81,59,-130,33,-139,77,142,0.257,0.073,-0.407
-125,-54,24,141,-72,16,-98,0.121,-0.119,0.338
-53,53,-74,50,-79,-51,12,-0.637,0.504,-0.328
-101,-48,50,22,97,88,-103,-0.226,-0.232,0.664
-37,-15,79,98,-101,54,-37,0.125,-0.035,-0.133
-67,32,-117,44,-156,-61,127,-0.211,0.078,1.064
11,-2,9,101,-100,-34,44,-0.147,0.522,0.033
-50,-53,-36,-3,35,-41,88,-0.046,0.046,0.107
-55,-35,21,114,111,-3,-10,0.414,0.496,-0.001
-59,-33,-93,105,29,-31,129,-0.299,0.336,0.77
-30,-85,34,32,-31,22,-97,0.248,0.185,-0.263
-23,29,159,37,-15,115,10,0.556,-0.059,0.417
-39,-106,-98,37,-14,6,-93,-0.152,-0.838,0.771
-99,-103,-173,105,-143,28,115,0.362,-0.363,0.208
-136,-67,99,132,-155,-7,169,0.053,1.035,0.276
47,-31,-141,69,4,-42,60,-0.524,-0.049,0.826
-76,30,36,5,116,-10,27,-0.164,0.302,0.399
-141,32,-152,19,153,-27,42,-0.462,0.268,0.886
-9,-75,46,44,123,19,138,-0.389,-0.186,1.22
-32,4,167,50,25,111,-89,-0.536,0.101,-0.025
-127,37,-81,78,-93,119,4,0.113,-0.502,0.737
-53,16,55,145,-120,27,-91,-0.484,0.578,0.042
39,44,167,139,-152,38,35,-0.031,-0.406,1.134
19,2,102,56,56,15,146,0.543,-0.371,-0.035
6,18,3,10,-101,-78,-6,-0.205,0.303,0.337
19,48,-131,75,41,-70,21,-0.479,-0.685,-0.107
16,-37,41,10,-167,-20,115,-0.463,-0.432,0.271
-28,-26,90,72,-93,-67,94,-0.151,-0.128,0.401
-22,-85,120,29,-26,11,150,0.098,0.15,0.477
-108,-61,-171,144,-122,81,-75,-0.026,-1.017,0.146
44,54,68,123,17,65,-87,0.256,-0.441,0.271
-76,5,-6,129,90,26,-136,0.182,-0.364,0.392
-76,-37,-111,121,169,45,-109,0.776,0.098,0.453
-96,-99,89,139,-66,28,-133,-0.069,-0.689,0.343
42,-42,58,13,124,62,-85,-0.604,-0.814,0.082
28,-93,-141,24,-37,-75,81,-0.842,0.435,0.234
11,3,-121,15,-20,19,-73,-0.299,-0.568,0.58
-76,-89,140,47,-136,10,-16,0.046,-0.082,0.56
-51,-103,-113,107,-131,-42,70,-0.659,0.211,0.125
-29,1,-115,105,-107,77,64,-0.623,0.233,0.712
-126,-59,74,146,-130,50,-39,-0.197,-0.84,0.419
-72,-15,106,18,115,82,-82,0.134,0.519,-0.427
-36,-24,116,6,-124,49,106,-0.113,0.854,0.702
47,-36,-77,85,75,1,20,-0.413,-0.25,0.637
-119,-40,-149,7,-113,55,-88,-0.384,-0.651,-0.056
-81,14,-89,19,-109,-34,-81,0.671,0.26,0.247
48,10,-83,112,168,-61,-164,-0.391,0.151,-0.238
-90,-42,-97,0,-60,68,53,-0.804,-0.566,0.447
-94,47,162,113,159,103,-84,0.023,-0.599,-0.038
-84,-107,-101,16,93,-84,101,-0.305,0.038,0.352
-74,-53,-21,136,174,2,-154,0.152,0.27,-0.124
-89,-91,-61,94,4,46,141,-0.619,-0.192,0.093
-37,-110,-128,37,-63,-62,81,0.509,-0.472,-0.395
-97,45,159,130,-23,52,40,-0.266,0.312,0.317
-3,31,-40,91,57,17,-168,0.504,0.065,0.413
-38,47,-69,108,-122,52,-158,-0.298,-0.57,-0.269
-78,54,38,73,-154,117,-87,-0.317,0.16,0.1
-17,-49,-173,10,16,-86,119,-0.309,0.104,0.239
-45,1,61,121,-99,-84,-51,-0.0,-0.062,0.79
-138,-40,-150,146,141,-56,-61,-0.805,-0.172,0.169
-93,-78,142,52,-151,103,24,0.284,0.061,-0.207
-97,0,-170,48,130,-80,-49,-0.073,0.444,0.491
-83,-114,-161,25,99,35,-62,-0.272,0.155,0.742
42,-103,-20,147,15,101,91,-0.564,-0.085,0.601
-49,-35,157,125,-174,78,-119,0.432,0.217,-0.225
46,-65,-147,110,-158,112,-174,-0.119,0.259,-0.091
-36,-112,-71,58,41,-38,-91,0.413,0.1,1.013
-40,-66,-57,40,-62,-13,-124,-0.303,0.522,0.623
-7,-21,-161,141,-95,24,-160,0.095,0.303,-0.15
-7,-48,-15,70,1,-75,-54,0.202,-0.934,0.584
2,-93,160,123,150,-60,172,-0.398,0.388,0.381
-21,-2,11,107,-144,26,-160,-0.334,0.857,0.393
-50,-15,4,106,-68,1,-51,-0.513,-0.614,0.015
-79,-98,114,122,121,-44,-45,0.455,-0.009,-0.046
-57,-15,-24,9,8,-38,59,-0.329,0.323,0.573
-122,-122,-28,100,-142,65,-35,0.076,0.608,0.217
41,-88,-104,79,134,3,-5,-0.265,-0.013,0.494
-64,-112,113,17,55,11,158,0.058,0.047,0.66
-134,-115,-118,97,-68,-38,-167,0.43,0.07,0.65
-28,52,-65,100,-133,-46,-109,-0.642,-0.02,0.013
-79,-87,-47,101,-108,110,134,-0.489,0.329,0.649
-92,20,149,90,-14,100,-60,0.377,0.128,0.847
-105,-112,-16,94,-76,85,-141,-0.101,0.619,0.418
3,-94,49,69,105,-78,-23,-0.339,-0.11,0.813
-45,25,143,142,-4,23,18,0.13,0.305,0.635
-7,-40,29,35,-70,5,-97,0.232,-0.056,-0.027
-56,9,129,102,-44,98,9,0.631,-0.02,-0.098
-129,33,-40,18,-93,65,124,-0.573,0.56,0.31
-73,29,-30,87,-95,-58,-94,0.482,0.391,0.405
-81,-43,-134,101,165,69,-101,0.663,0.093,1.082
-79,5,-5,116,-161,51,-111,-0.323,-0.263,0.565
-116,-27,-6,124,155,66,124,-0.069,0.222,0.237
-54,23,-170,53,-1,16,-35,0.387,0.13,0.546
16,-7,-84,102,9,0,-154,0.44,0.697,0.389
37,-7,165,18,117,-4,-124,-0.142,-0.233,0.701
-50,59,-79,139,-144,-30,170,0.818,0.18,0.067
20,16,123,12,-99,-30,-94,0.502,-0.588,-0.005
32,-95,117,120,-24,-42,114,-0.022,-0.619,0.525
-70,-8,-83,39,84,-28,26,-0.288,-0.24,0.483
48,-89,162,14,-128,-30,-25,-0.171,0.656,0.768
50,-40,-30,-2,-24,-51,-160,-0.379,-0.269,0.698
48,-87,-77,10,-122,114,103,0.275,-0.006,0.668
-111,14,50,102,138,67,-129,0.098,0.809,0.341
-87,-66,123,38,-107,37,79,0.762,-0.334,-0.279
-18,-13,108,33,-172,24,-39,-0.333,0.504,0.64
-98,7,-18,13,110,-50,-94,-0.691,0.458,0.95
-23,36,-14,24,-10,-35,46,0.206,-0.396,0.335
-63,-69,-22,114,6,13,157,-0.366,0.27,1.059
-2,57,62,34,113,4,42,-0.475,0.018,0.687
-12,-63,-65,11,168,15,166,-0.303,0.093,0.526
-131,42,-112,44,-2,-3,-107,0.16,-0.507,0.101
-132,-115,-124,82,115,21,-35,-0.496,-0.232,-0.129
-97,-48,-63,84,-56,46,-4,-0.091,0.271,0.447
-2,-61,-92,139,-127,4,74,-0.549,-0.554,0.444
-102,-20,141,88,-46,-35,9,-0.156,0.32,0.728
42,-72,87,134,-31,-81,-59,-0.487,0.045,0.691
21,-103,-85,84,2,-6,-76,-0.205,0.151,-0.366
-86,-101,-123,15,-174,20,157,-0.184,-0.389,0.117
-37,-108,-108,55,66,14,144,-0.29,-0.185,0.006
-87,-90,-139,100,170,117,82,0.304,-0.49,0.071
-130,-49,-160,30,96,47,-136,0.042,0.648,0.434
-65,-55,123,102,171,73,108,-0.133,-0.484,0.599
-35,-9,38,75,-93,36,-153,0.538,0.544,0.093
-21,26,165,86,141,84,-78,-0.242,0.05,0.351
-93,-3,-31,35,153,39,170,0.084,0.066,0.539
-12,-78,168,38,-153,13,44,0.23,-0.867,-0.15
-110,-44,-78,3,171,71,-5,-0.044,-0.181,0.228
-91,-121,134,28,162,102,142,0.463,-0.3,0.484
-31,-80,2,65,105,0,-49,0.345,0.55,-0.138
-92,18,-45,90,15,-2,81,0.3,0.25,0.288
-4,-30,11,19,-74,-37,-18,-0.117,1.008,0.511
-114,-85,-81,4,3,26,-116,-0.249,-0.134,0.611
-8,-51,33,132,-97,18,-33,0.2,0.618,0.925
11,-72,34,37,118,-64,80,-0.704,0.3,0.156
-74,8,11,147,31,-14,69,0.447,0.061,0.761
-59,34,-112,26,-80,111,-16,-0.217,0.271,-0.289
-25,-68,158,149,130,23,-91,0.059,-0.168,0.56
-27,4,148,53,137,-90,-51,-0.33,-0.168,-0.057
-53,-13,-5,141,167,12,148,-0.422,-0.34,0.392
-136,-97,-54,137,54,84,-161,0.314,-0.134,0.262
4,-38,-48,89,-14,11,-165,0.447,0.302,0.829
-48,-18,8,117,79,86,-119,0.173,0.308,0.361
-29,43,166,140,-93,110,-127,0.023,-0.317,0.333
47,-74,150,101,99,-58,-137,-0.792,0.495,0.269
-50,-54,-97,86,-10,39,3,-0.058,0.076,-0.116
-127,-113,-84,80,-110,80,31,0.331,-0.324,0.82
-105,-115,-135,111,166,-11,-85,-0.211,-0.156,0.376
-55,-39,-35,44,95,1,148,0.363,-0.811,0.387
-135,-40,-11,34,8,-22,113,0.127,0.045,0.352
14,-119,-112,69,24,14,-26,0.22,0.557,0.96
-88,-78,-127,140,146,-52,38,0.246,-0.624,0.194
-21,-2,-140,107,-121,16,36,0.073,0.558,0.23
-33,-110,-54,35,169,-20,113,0.248,0.101,0.012
-139,-92,122,59,-76,-88,-23,0.606,-0.014,-0.059
-76,33,-153,76,-56,49,20,0.553,-0.704,0.648
-33,-120,-152,59,34,-33,117,-0.317,0.177,0.163
25,-76,68,57,97,116,90,0.047,-0.068,0.889
14,-71,25,92,-5,-16,133,0.315,-0.28,0.056
-95,22,33,131,6,-37,5,-0.626,-0.595,-0.064
-16,48,15,142,71,63,-170,0.236,-0.34,0.498
-32,-35,110,113,-167,7,27,-0.199,-0.835,-0.203
-57,-95,-50,146,-105,-55,-125,0.323,0.201,0.851
-120,-79,-31,39,-1,54,157,-0.118,-0.502,-0.238
-141,57,165,82,89,21,78,-0.137,-0.48,0.823
5,-92,152,3,-132,-57,8,-0.231,0.198,-0.153
-49,-60,50,82,-124,-44,-154,0.844,-0.162,-0.294
3,-32,36,122,100,52,88,0.489,0.064,0.276
-42,34,-21,18,10,48,158,0.388,0.293,-0.155
-23,-98,-162,39,-62,-15,78,0.271,0.271,-0.23
-132,-12,67,40,-66,59,-138,-0.085,-0.319,0.61
-24,-120,-128,112,130,-69,-85,-0.499,-0.076,0.949
-129,12,29,107,33,61,105,0.582,0.002,0.721
27,-28,-130,62,-61,-64,-161,0.744,-0.154,-0.125
21,6,-130,80,-49,32,57,0.165,0.512,0.775
-141,-12,-165,45,111,35,-33,-0.51,0.148,0.708
-117,-62,100,87,163,-46,86,-0.077,0.03,0.817
-120,-104,-90,50,-88,-4,148,0.066,-0.745,0.046
-97,-74,-110,62,29,9,-87,-0.499,0.041,0.159
-140,-122,72,122,-30,-69,170,0.245,-0.197,-0.245
35,-52,-59,76,80,-17,-50,0.437,0.591,0.112
7,-31,159,32,23,82,111,0.145,0.53,1.152
-107,41,39,125,33,97,-56,-0.005,-0.467,-0.23
-18,-8,-63,20,-68,-50,152,-0.187,-0.511,0.965
-22,-35,137,132,173,12,-85,-0.299,0.887,-0.136
-25,-33,-112,116,-165,51,-40,-0.078,0.14,0.873
1,-5,41,88,56,23,89,0.577,0.5,0.393
11,46,35,65,-24,-16,-16,0.113,-0.338,0.296
-124,-6,72,119,16,51,20,0.004,0.575,1.035
-95,5,6,14,92,-27,-136,-0.001,0.09,0.886
-106,-12,-114,45,-13,-2,12,0.487,0.217,0.92
9,-82,-28,35,-5,91,6,-0.171,-0.14,0.661
14,38,-99,27,-3,27,-132,-0.445,0.353,0.763
-132,-114,-108,94,91,30,69,-0.402,-0.194,1.009
-35,-56,60,136,107,-85,-107,-0.41,-0.046,0.707
-24,26,-153,60,-38,38,116,-0.44,0.267,0.451
-111,-84,-160,127,48,-83,138,0.361,0.504,-0.162
-99,-29,44,75,43,58,144,0.774,0.432,0.121
-47,-6,-38,23,19,12,68,0.32,0.322,0.536
-96,-35,-49,9,-141,32,-14,0.024,0.354,-0.211
30,-105,-88,38,173,-74,162,-0.226,-0.927,0.295
2,-109,133,11,93,112,59,0.465,0.339,0.403
-11,0,-67,56,-71,51,11,0.1,0.373,1.131
-93,-16,-41,31,-24,-43,-81,0.881,-0.005,-0.111
0,53,92,138,-36,20,164,0.168,-0.792,-0.172
-74,-22,-141,5,-149,18,52,0.327,-0.194,-0.467
-63,-75,95,68,-15,-33,149,-0.059,-0.051,0.987
29,-108,-14,73,25,-61,10,0.373,0.409,0.174
-5,2,-26,116,-116,-55,-12,0.439,-0.19,0.494
1,4,-166,58,-80,-64,111,0.408,-0.191,-0.376
7,-107,-8,23,-118,-78,-118,-0.249,-0.009,0.779
-35,-119,-71,73,77,46,73,-0.342,-0.16,0.388
-88,7,23,36,169,72,-6,0.186,0.187,0.735
-107,19,-38,31,-5,78,45,0.37,-0.039,0.905
-126,5,150,35,44,-36,139,-0.428,-0.176,0.043
-74,-20,17,145,80,23,140,0.176,-0.388,0.835
-42,17,-27,68,146,109,58,0.375,-0.481,0.4
4,-24,-12,144,10,70,-114,-0.609,-0.141,0.934
-9,-106,43,117,-69,104,-136,-0.163,0.106,0.758
-18,-15,24,43,-137,15,122,0.014,-0.601,-0.005
50,-48,-35,78,170,-40,27,0.537,-0.151,-0.089
-42,43,-150,146,-127,106,-100,-0.359,-0.386,0.901
13,23,-137,33,81,26,21,-0.697,-0.11,0.392
16,-62,-63,31,34,-88,112,-0.593,-0.111,1.1
-34,-122,-66,117,86,-69,48,0.46,-0.028,-0.002
-51,-78,-123,57,-155,-60,-91,-0.192,-0.416,-0.151
-36,25,-132,12,-55,55,-33,0.24,0.012,1.075
-56,-81,82,68,-103,29,119,0.049,0.164,0.794
19,11,-93,17,11,-52,69,0.162,-0.316,0.406
-87,24,76,74,-71,38,31,0.387,-0.62,0.522
-8,-88,167,122,135,-81,-13,0.18,0.532,0.361
20,-105,99,31,93,-7,138,0.65,0.723,0.076
-9,-46,-173,105,80,-72,-153,0.156,0.013,0.284
-32,-96,-106,35,145,-7,-30,-0.006,-0.202,0.787
-24,-12,100,74,102,-8,173,0.179,0.04,1.004
17,47,-76,45,-48,-23,75,-0.366,0.441,-0.029
-78,-104,-10,128,-159,12,-164,-0.147,-0.48,-0.126
-86,-43,57,146,-91,110,-57,-0.288,0.506,0.258
-56,-88,-43,35,40,11,163,0.39,-0.274,0.586
-16,-2,11,95,118,30,-138,0.675,0.418,0.506
-3,-26,-73,44,130,62,-10,0.643,0.347,0.819
-9,45,104,81,127,107,-67,-0.937,-0.215,0.595
-89,-7,95,48,-157,82,-76,-0.467,-0.362,0.48
21,29,16,138,136,-5,-32,0.633,-0.306,-0.113
-25,33,64,9,16,-49,-136,0.384,0.006,-0.267
47,-49,-66,8,119,-40,49,-0.579,0.023,0.777
-56,-40,-78,82,71,34,-40,0.264,-0.576,0.174
-29,-46,115,96,63,18,59,0.412,-0.547,-0.135
-33,51,75,148,-129,11,-79,-0.007,0.162,0.638
-137,13,0,49,-62,-18,149,-0.075,-0.021,1.099
-96,34,10,41,62,83,-103,0.053,-0.518,-0.13
-99,-37,121,15,4,52,-139,-0.32,0.661,0.437
19,14,-12,121,172,94,167,0.648,-0.314,-0.236
33,-56,106,15,169,101,46,0.565,-0.138,0.475
-94,-22,-3,45,-13,103,159,0.37,-0.168,-0.255
-108,-50,27,104,44,65,-24,0.046,-0.512,0.569
-133,45,-114,89,96,102,81,-0.22,-0.801,0.334
-76,-26,10,114,113,-46,-43,-0.545,0.204,0.726
33,-26,-8,115,7,96,143,0.392,-0.08,0.141
-14,30,-109,15,-107,-8,-144,-0.58,0.186,0.056
4,43,-47,47,-114,74,146,0.212,0.129,-0.049
-8,35,50,148,169,-24,-24,-0.581,-0.262,0.334
20,27,107,9,-44,45,-57,0.338,-0.312,0.388
-7,-97,83,90,64,26,26,-0.111,0.476,-0.0
13,4,-121,27,156,98,-54,0.107,-0.628,0.313
-103,9,-121,34,-149,30,-149,-0.559,-0.272,0.409
3,42,78,81,-129,82,-85,0.756,0.325,0.529
-80,-42,-14,4,-26,22,136,0.097,0.375,0.537
-41,27,164,121,165,42,137,-0.099,0.506,-0.047
44,44,-137,31,-123,45,100,-0.112,-0.265,1.08
-37,-116,-87,3,-118,30,-108,-0.113,-0.517,0.4
-95,56,-79,62,19,25,79,-0.008,-0.044,1.186
50,-39,31,110,19,-5,78,-0.112,-0.426,0.094
-104,-62,-142,43,-137,21,-163,-0.35,0.39,0.841
-49,-119,63,133,-25,-36,18,0.465,0.541,0.49
-71,7,42,114,-131,62,13,-0.286,-0.147,1.177
-139,-70,-148,51,162,-56,154,-0.558,0.635,0.614
-134,7,13,45,-67,-50,-93,-0.502,-0.852,0.563
-141,-54,35,84,-76,-74,-5,-0.518,-0.372,0.074
-48,-90,-80,6,55,-8,-89,0.702,0.153,0.13
11,27,-127,79,-97,72,117,-0.08,-0.095,0.373
11,-90,-164,131,-139,91,-5,-0.45,0.121,0.11
30,-11,73,60,117,-76,-115,0.448,-0.157,0.211
-83,-37,158,49,-160,70,-81,-0.483,-0.228,0.729
-77,-10,150,55,6,101,-53,-0.253,-0.822,0.09
-73,-45,64,61,-35,-1,46,0.478,0.296,0.731
-67,-118,28,122,-147,-85,-129,-0.283,0.138,0.601
-31,-74,-69,41,-86,-43,122,-0.076,-0.285,0.282
16,-33,-88,84,21,-41,-106,-0.047,0.024,0.454
-14,-39,5,16,130,78,55,-0.397,-0.033,0.301
-122,-3,109,32,-86,68,-93,-0.149,0.297,-0.559
25,-8,160,106,57,-69,16,-0.773,-0.165,0.654
-129,-6,-26,33,40,-55,25,-0.444,0.545,0.575
-100,39,156,18,-85,106,136,0.807,0.396,0.691
16,42,102,26,76,-46,43,0.58,0.373,0.336
-5,-46,-79,100,31,-79,102,-0.015,-0.554,0.105
49,-85,-31,10,-17,-69,133,-0.293,-0.169,0.676
-84,-11,20,90,156,96,159,-0.616,-0.134,-0.109
16,-119,-171,4,-28,25,-8,0.379,-0.265,0.581
-101,58,146,8,87,0,98,0.764,-0.166,-0.144
-22,-22,89,146,-164,57,126,0.525,0.177,-0.302
9,-25,-143,109,60,103,-78,-0.313,-0.331,0.634
-4,51,13,28,160,-21,2,0.124,0.167,0.305
-94,26,27,106,167,-34,84,0.305,-0.15,0.77
-88,29,-8,50,35,35,-124,-0.454,-0.335,0.188
35,-29,-32,123,-145,-63,-12,-0.303,-0.048,0.731
-91,28,-69,37,-16,39,53,-0.67,0.378,0.029
-134,-91,159,123,-28,22,73,-0.053,-0.003,0.221
-113,39,82,120,-130,82,94,1.054,-0.188,0.284
43,-109,85,1,-11,-29,-164,-0.322,-0.336,-0.061
-89,-61,8,96,-161,13,39,0.593,-0.477,-0.17
-31,-23,-97,79,-98,-22,62,0.172,-0.034,0.083
-35,57,-110,124,21,94,-115,-0.762,0.189,0.514
-114,-33,-62,29,-108,-53,54,-0.017,0.016,0.539
-95,-58,22,129,-18,-70,-97,0.023,0.492,0.046
-19,-20,-77,41,-118,-18,129,-0.023,-0.011,-0.093
-130,-112,62,71,2,-86,-33,0.357,0.37,0.178
23,-105,-83,113,26,-2,-174,-0.633,-0.421,0.544
-67,52,-106,14,110,-43,151,-0.198,0.804,-0.216
-29,-94,116,45,125,88,-9,-0.032,-0.396,1.123
-32,-39,110,13,171,35,-11,-0.514,0.174,0.168
-135,-40,-24,126,-9,20,-28,0.494,0.681,-0.025
-122,-82,11,47,119,-50,-115,0.301,0.343,0.12
-91,57,-20,112,142,-15,96,-0.329,-0.283,0.662
-69,-59,116,55,103,-81,160,-0.565,-0.113,0.404
32,53,75,57,-73,15,142,0.252,-0.34,-0.259
-85,-78,170,69,14,99,160,0.534,0.596,0.111
30,-55,-45,56,134,67,77,-0.334,-0.738,0.473
-109,-32,83,46,9,-25,22,0.369,-0.514,0.729
30,19,-79,56,93,85,-66,0.036,-0.358,0.683
38,-64,154,32,-83,68,24,-0.492,-0.67,0.541
-24,16,152,58,-138,-24,89,-0.291,-0.444,-0.103
-94,-16,-32,145,153,-2,3,0.085,-0.695,0.16
9,-63,-28,113,72,30,9,0.334,0.002,1.071
12,41,-126,85,54,77,-162,-0.233,-0.272,0.59
-15,51,64,91,-172,119,38,-0.413,-0.039,-0.055
3,-21,-154,43,-12,38,63,0.812,0.237,0.347
-27,-63,-27,53,-160,100,28,0.041,0.431,0.156
-97,29,32,92,-39,-76,37,-0.396,0.264,0.513
-98,41,75,62,161,35,-14,0.035,0.264,-0.188
-52,-105,-89,61,-12,17,-5,-0.169,-0.43,0.694
45,-52,-18,67,170,110,-28,0.106,-0.437,0.53
30,-43,-44,63,-8,9,-142,-0.051,-0.45,0.779
29,19,44,90,-128,36,-53,-0.466,-0.278,0.299
-139,10,65,61,-152,52,-126,-0.518,0.264,0.162
7,-85,-111,138,-137,-25,29,0.72,-0.483,-0.268
-90,52,-43,88,-58,12,-52,-0.751,-0.741,0.346
-25,-24,-171,120,71,17,-68,0.356,-0.404,0.815
-105,-29,-156,115,1,10,-110,0.375,0.106,-0.076
-35,19,-51,122,44,81,-76,0.185,0.614,0.418
-3,-43,-134,14,93,105,138,-0.349,0.43,0.824
38,-103,-171,110,-86,104,23,0.092,-0.11,-0.026
-141,-40,59,99,-138,72,37,0.337,0.42,0.081
-81,-21,158,78,-142,-25,140,-0.39,-0.019,0.691
-36,40,-63,141,-61,-55,-12,0.156,-0.174,0.316
-128,-11,77,52,-65,69,115,-0.319,-0.688,-0.159
-27,9,100,114,-128,34,123,-0.581,-0.046,-0.167
-22,18,90,110,33,59,-83,-0.143,0.037,0.441
-30,-123,-30,121,112,107,10,0.088,-0.005,-0.57
-30,-86,50,34,-75,-51,-28,0.625,-0.21,0.308
23,-64,109,15,166,-26,-37,0.486,-0.204,0.394
-117,1,113,83,-103,-52,-24,-0.266,0.635,0.085
0,-99,-55,99,89,31,-175,0.327,-0.718,0.285
-71,4,-148,96,8,70,12,-0.201,-0.083,-0.438
-85,-122,-128,107,128,80,-117,0.044,0.744,-0.09
28,-74,94,135,-166,-82,156,0.298,0.299,0.467
-72,-67,-150,43,35,4,86,-0.685,0.06,0.356
-95,-13,139,1,4,33,75,0.005,0.11,1.134
-103,-63,27,73,35,-14,25,-0.448,0.048,0.467
-73,-37,68,5,-7,-3,40,-0.049,0.025,0.719
-23,-60,110,5,5,26,-83,0.311,0.198,-0.47
47,22,147,83,0,117,-174,-0.048,0.399,-0.328
-90,-62,146,143,118,98,-5,-0.317,-0.054,0.37
48,-42,124,10,-47,114,114,0.022,-0.368,0.601
-52,-106,38,115,-172,114,166,-0.523,-0.731,0.285
45,-103,-126,57,-77,-72,-73,0.17,-0.478,-0.074
-138,-88,-55,42,107,50,-139,0.54,-0.321,0.533
-70,12,64,12,66,-82,-79,-0.44,0.153,1.093
-102,-4,134,62,-24,61,-141,-0.467,-0.424,-0.199
-14,-68,-114,40,95,-33,-114,-0.489,-0.239,0.733
-126,26,63,37,-49,-45,169,0.304,-0.455,1.002
2,-104,-131,1,37,2,75,0.524,0.049,-0.18
-32,25,168,126,136,-52,115,0.04,-0.351,1.015
-64,-74,5,96,52,7,-7,-0.624,-0.322,0.561
-84,23,-144,38,-137,32,153,0.346,0.842,0.069
-69,-3,111,92,112,-21,17,0.225,0.066,0.12
-134,48,-134,27,-87,-78,-148,-0.334,0.139,-0.108
-130,59,80,138,-75,83,-107,0.548,0.753,0.052
40,-107,123,115,13,-23,61,0.085,-0.337,0.358
-128,-36,-119,42,107,21,-65,-0.639,-0.104,0.571
26,-109,-137,98,-67,64,77,0.147,0.053,0.58
36,-111,169,56,-70,42,-21,-0.177,-0.677,0.257
42,-41,122,97,54,66,-20,-0.141,-0.307,0.081
-19,-82,-18,134,174,118,-75,0.449,0.336,0.516
-103,-112,-62,128,16,19,-118,-0.568,-0.164,-0.185
-106,-51,-6,35,-23,-75,-15,0.474,-0.134,0.258
-58,8,-163,103,-107,-30,154,-0.506,-0.025,0.234
-10,-40,89,86,50,20,-106,0.513,0.473,0.445
-44,4,-131,121,-133,-4,-125,-0.562,-0.254,0.336
-37,-7,-48,24,160,93,-63,-0.045,-0.321,1.04
-32,14,-137,30,-146,-12,-83,-0.046,-0.812,0.477
-93,-117,-136,20,-128,119,-135,0.25,0.823,-0.185
-73,-44,-135,105,61,-14,30,-0.426,0.265,0.49
46,-20,10,49,-147,-51,-26,-0.009,-0.499,0.874
-59,-101,-111,40,32,2,163,0.033,-0.346,0.408
-66,-88,136,142,-110,52,105,0.151,-0.139,0.217
-112,-28,-135,32,-37,44,-51,0.797,-0.145,-0.355
-66,-56,85,107,-141,82,10,-0.463,0.042,1.206
19,-100,-6,40,160,69,72,0.635,-0.333,0.139
42,56,88,100,-28,63,20,0.06,0.595,0.964
-90,-121,-153,65,52,-2,-150,-0.081,0.262,-0.114
-57,59,10,117,-105,76,133,0.226,0.176,-0.128
-105,58,158,41,-80,-2,-123,0.423,0.365,0.307
-1,-3,89,26,-135,86,-23,-0.185,0.155,-0.324
-25,-108,-98,71,83,55,-41,-0.566,0.288,0.351
43,-86,63,21,85,55,99,-0.324,-0.04,0.07
-108,-27,-103,56,-60,116,-68,-0.409,0.266,0.481
-60,-58,128,9,105,65,-16,0.416,-0.362,0.203
-39,-23,-9,51,63,77,92,0.057,-0.768,0.577
-121,-100,-86,65,126,97,1,0.087,-0.477,0.396
-28,1,169,88,86,45,-107,-0.668,0.037,0.985
-23,-28,149,52,92,106,58,0.298,0.649,0.5
-73,-70,-77,15,22,26,90,0.529,0.419,0.273
-76,-31,88,98,47,57,-133,-0.379,-0.279,0.339
-94,-80,99,3,33,24,-66,0.258,0.157,0.817
-136,-75,136,107,-155,-44,-174,-0.064,0.326,1.258
-101,56,-45,121,-160,6,-84,-0.194,-0.666,0.72
-64,-38,-142,123,-12,79,52,0.283,0.014,0.735
-71,-106,21,48,170,111,-23,-0.111,-0.58,0.266
-52,-119,13,113,3,24,-96,-0.017,-0.588,1.053
-118,-61,37,107,165,74,-28,0.774,0.48,0.414
-97,-76,14,80,147,-15,-114,0.113,0.328,0.747
-52,8,104,51,-54,58,-74,-0.607,-0.582,0.658
39,-40,-97,101,-6,76,-165,0.742,-0.38,-0.213
-30,-39,-56,82,131,113,-164,-0.03,-0.791,0.824
34,-43,-101,84,-80,17,64,0.182,0.392,0.591
-10,-17,-170,114,122,71,114,-0.258,0.685,-0.122
20,-114,-164,111,1,-71,-77,0.244,-0.503,0.398
-64,-74,33,103,-114,119,-24,0.359,-0.31,-0.212
36,-38,107,145,79,-90,55,0.262,-0.217,0.931
-79,-28,-28,45,139,14,139,-0.283,0.658,-0.06
-101,31,-44,112,-79,96,-54,-0.424,0.184,0.49
-93,-80,-36,52,-87,-11,-87,-0.145,0.445,-0.053
5,-37,120,26,94,25,15,0.279,-0.928,0.676
-129,26,-169,49,-56,39,139,-0.344,0.243,1.026
1,35,66,136,-144,55,-52,-0.183,-0.09,-0.216
9,-67,-87,36,151,18,-22,0.209,0.567,0.459
-50,-41,-21,3,-166,-14,-55,0.213,0.244,0.225
-120,36,35,52,74,80,146,-0.472,-0.429,0.017
-20,-43,-43,143,58,-34,-47,-0.012,-0.597,0.663
-137,-29,25,29,-92,70,79,0.112,0.149,0.654
6,58,138,17,-93,23,70,0.323,-0.444,0.695
24,47,36,34,-30,73,89,0.016,-0.493,0.103
-41,21,-2,136,155,-4,16,-0.403,-0.023,0.424
49,-113,144,146,-26,30,65,-0.066,-0.626,0.873
-119,-40,-131,95,-127,-85,-166,-0.213,-0.558,0.102
26,-33,-35,147,-55,99,-91,-0.524,-0.114,0.176
-136,-17,-53,136,-137,-52,-97,-0.492,0.452,0.067
-35,-54,-101,116,-143,-19,-9,0.168,0.309,0.709
-84,-5,92,147,84,-70,-15,0.196,-0.277,0.745
-66,-61,76,49,-127,17,-36,-0.307,0.208,0.651
3,-72,78,76,139,45,144,-0.264,0.514,-0.455
-31,-116,45,88,-148,69,25,0.103,-0.766,-0.371
11,15,64,7,119,-18,134,-0.387,-0.315,-0.527
-39,-109,-134,80,-76,-8,-63,0.073,0.135,-0.088
-127,33,46,61,150,93,81,-0.361,-0.168,0.027
-68,-32,150,110,-130,-61,-20,0.125,0.012,0.161
-140,-2,39,8,-14,-23,98,0.034,0.653,0.353
-54,51,52,50,-131,-41,110,-0.529,0.168,0.719
8,39,-51,73,-140,52,129,0.257,0.092,0.742
-141,16,99,73,173,9,-53,-0.143,-0.004,0.214
-99,45,-64,47,-155,-38,144,0.095,-0.28,0.695
-68,26,-3,43,101,-3,-43,0.115,0.499,0.713
-49,-45,-22,124,5,105,-21,-0.159,0.139,0.596
-65,-72,-149,6,-43,108,-148,-0.604,0.356,-0.343
-72,-26,-160,13,-144,15,-132,0.5,0.293,0.361
-37,16,-106,111,-4,4,-101,0.442,-0.38,0.146
3,40,172,83,-139,13,149,-0.814,0.009,-0.205
-23,-5,108,70,-53,88,126,-0.571,0.887,0.264
-28,-30,114,128,-154,112,-59,-0.195,0.195,-0.147
15,-94,111,13,-174,-43,-99,0.048,0.441,1.127
-105,-85,-11,139,22,10,-80,0.048,0.316,-0.272
-2,-4,48,82,92,57,110,-0.932,-0.485,0.104
-4,-103,61,79,112,31,144,-0.279,0.186,-0.117
-102,23,-79,102,38,80,66,-0.329,0.466,-0.247
-127,31,-105,7,130,22,136,-0.085,0.269,0.827
-27,-86,-92,148,72,-44,-96,-0.029,0.03,-0.244
-133,-68,112,138,-67,12,-63,0.175,-0.823,0.888
-121,-109,65,148,-8,-36,65,0.227,0.449,0.19
-114,-79,153,54,-23,-23,-42,-0.14,-0.022,0.288
15,47,55,50,155,-78,-110,0.279,0.26,-0.192
-78,0,139,100,-36,118,62,-0.269,0.011,1.121
-94,-71,74,118,-98,84,-1,-0.374,-0.009,0.137
-70,-54,70,3,-82,46,-97,-0.441,-0.265,0.218
-114,4,40,32,163,32,-45,-0.578,0.199,-0.431
-89,-106,24,-2,-45,-72,2,-0.055,-0.035,0.584
-74,-74,-57,67,-125,-21,-5,0.362,0.197,0.702
-24,-108,-39,-3,-26,21,165,0.205,-0.485,0.189
-77,-58,158,20,-11,28,167,0.237,0.248,0.514
33,-90,132,44,-124,107,11,0.527,-0.792,0.134
-44,15,-58,51,70,-4,55,0.188,-0.591,0.432
-26,-120,-19,139,127,59,-19,0.166,-0.151,0.842
40,-17,50,63,-70,-56,52,0.016,1.048,0.185
-111,-54,33,91,-18,-84,136,0.315,0.151,-0.147
-82,-42,-140,62,-26,94,-34,0.793,-0.447,-0.065
4,-112,-144,44,36,45,-80,-0.809,-0.313,0.747
19,29,39,29,169,-5,-85,-0.255,-0.472,0.583
29,45,10,79,-173,-85,-118,-0.116,-0.119,0.284
-14,-15,-87,48,-94,47,-1,-0.464,0.229,0.296
-122,-23,43,50,-68,-58,-140,-0.903,0.053,0.342
-73,-72,-153,116,32,98,9,-0.013,0.402,-0.142
-9,-96,-45,100,125,26,37,0.425,0.794,0.212
-14,51,-95,30,-161,-79,167,0.272,-0.312,0.612
-33,47,10,108,-112,29,84,-0.279,-0.483,-0.073
-110,-119,-111,146,-138,77,106,-0.317,-0.51,0.469
-137,34,-71,120,157,106,-148,0.951,0.241,0.01
-31,-58,-142,9,-83,-58,-6,-0.233,0.142,-0.063
43,-44,-11,123,168,-58,-78,0.075,-0.287,0.186
-61,-87,137,148,107,96,169,-0.278,0.058,0.723
49,45,102,94,-38,-59,131,-0.163,-0.591,0.545
-9,-17,93,133,-8,21,28,-0.795,0.151,0.436
-91,-15,-30,120,44,30,38,0.473,0.604,-0.101
-2,-81,-132,42,168,-7,-129,0.042,0.269,0.723
-96,-26,82,5,-86,51,31,-0.326,0.611,0.347
-124,-94,68,63,-98,-69,27,0.101,0.367,1.243
-134,15,-66,88,-10,88,-162,-0.953,-0.308,-0.095
-2,44,-117,89,-147,28,0,0.084,0.133,0.894
-31,-68,51,43,76,98,41,0.623,-0.139,0.503
-131,-84,-106,88,-156,47,66,-0.153,-0.538,0.133
-16,-32,31,104,79,-60,-23,-0.11,0.164,0.388
20,-51,-48,93,114,-60,-141,-0.075,-0.312,0.819
-81,-9,88,8,69,96,28,0.051,-0.453,0.556
-3,24,53,81,-56,-25,52,0.498,0.252,0.999
45,18,102,90,150,-40,-21,-0.469,-0.123,0.67
36,-121,-18,109,121,37,-89,0.203,0.186,0.903
-29,-56,-43,3,-41,42,91,0.062,0.267,0.263
-12,-87,-90,50,107,-33,24,0.483,0.491,0.751
-40,19,-88,12,-52,-4,39,-0.096,0.208,0.815
-31,25,6,17,-5,102,-6,-0.43,-0.074,0.604
20,-66,-88,29,54,-2,-84,0.236,0.275,0.24
-120,-25,66,136,-31,-37,-104,0.638,-0.109,0.491
-85,-70,67,145,147,50,-170,0.714,0.368,0.795
-42,29,-117,130,89,12,-121,0.25,-0.522,0.442
-25,-51,121,114,-173,-51,-99,-0.483,0.469,0.812
-45,30,86,103,-38,62,-48,-0.532,-0.288,-0.013
37,-46,-173,25,-93,-54,92,-0.558,-0.188,-0.037
-62,-28,0,136,97,-68,106,0.378,0.117,0.468
3,-59,-38,79,69,25,90,-0.362,0.431,0.389
-126,-53,-33,72,-174,28,86,0.098,-0.094,0.161
-118,-32,-141,77,-95,-5,-103,-0.219,-0.627,0.362
-66,-38,31,67,-20,82,-70,0.512,0.298,0.419
22,22,138,109,5,96,142,0.105,0.669,0.363
-16,-99,100,125,-127,4,33,-0.558,0.087,0.519
-61,14,98,73,-57,100,-52,-0.494,0.187,0.16
-76,-53,101,70,-118,-2,155,-0.643,-0.105,0.229
-14,-59,-114,86,-28,81,167,-0.22,-0.197,-0.35
29,-95,-109,6,148,-39,-41,0.102,0.424,1.029
49,-79,150,22,133,0,-155,-0.07,-0.306,0.726
-89,-80,154,87,-5,95,24,-0.128,-0.888,0.039
11,-55,-172,70,145,61,-8,-0.137,-0.761,0.658
-73,-42,-159,58,11,47,-30,-0.087,0.71,0.367
-118,46,-98,3,-105,30,47,0.036,0.28,-0.245
-71,-64,-171,76,138,72,-48,-0.244,0.491,0.428
-57,13,49,89,-140,76,51,-0.044,-0.55,1.065
-32,-10,-93,5,-55,106,-104,-0.324,-0.769,0.174
-31,43,-104,14,-47,-67,29,-0.468,-0.478,0.38
-80,-67,-107,131,-93,7,-134,0.147,0.939,0.286
-134,24,19,96,127,-27,95,-0.26,0.131,0.844
-127,-121,-73,70,102,53,-70,-0.124,0.345,-0.038
49,-123,-73,135,67,-13,96,0.213,0.178,-0.084
-131,-65,88,18,-53,17,-43,0.036,-0.568,-0.15
-53,-109,-54,69,108,-60,42,0.121,0.451,-0.155
-98,-53,-15,14,-105,8,112,0.028,0.685,0.274
-35,-81,47,120,-157,-20,-119,-0.473,0.187,1.099
-97,23,-120,65,174,68,-49,-0.1,0.222,0.782
-134,-123,169,110,83,-70,165,-0.472,-0.097,0.675
-25,-83,-15,29,46,-63,-110,-0.36,0.368,0.1
37,-62,-132,46,106,69,-88,0.011,-0.787,0.135
-50,-52,62,13,68,71,127,-0.238,-0.702,0.344
29,-32,128,75,1,-70,-29,0.139,0.083,1.161
-5,-59,129,120,-97,101,136,0.67,-0.46,-0.293
-26,-25,122,14,117,20,22,0.226,0.343,1.058
-7,-84,72,74,95,52,-94,-0.712,-0.021,0.267
-97,-25,53,67,146,96,138,-0.491,-0.013,0.475
-46,-113,-8,75,44,83,-106,-0.155,-0.005,1.183
-20,-27,130,4,30,-47,-81,-0.159,-0.074,0.058
-7,-6,-14,28,-33,-83,170,-0.323,-0.109,0.248
-108,49,44,148,-143,18,116,-0.489,-0.32,0.43
23,-38,75,63,13,112,-169,0.006,0.271,1.135
-49,41,-23,25,155,62,-55,0.793,-0.14,-0.267
-101,-68,-143,68,149,80,-171,0.033,-0.457,0.727
-130,20,69,100,96,-48,158,-0.302,0.667,0.536
-52,-110,1,122,-106,-13,46,0.001,0.567,0.125
34,-77,66,135,-76,-50,-23,-0.054,-0.432,-0.018
-24,39,160,65,148,27,-51,-0.048,0.479,0.816
49,31,8,137,-80,81,-46,-0.223,-0.237,1.067
-10,-80,26,44,-27,74,-89,-0.696,0.617,0.409
-46,15,148,92,70,-45,69,-0.011,-0.414,-0.228
-20,-97,-130,101,-45,-55,-63,-0.495,0.243,-0.319
-94,-91,-17,134,38,37,-128,-0.187,0.027,-0.48
-71,-117,-26,99,-84,31,87,-0.282,-0.777,0.148
-29,-115,126,46,94,102,99,0.198,0.084,0.79
-102,32,121,133,161,-7,-83,0.617,-0.481,0.765
-55,-42,98,35,149,17,-13,-0.148,0.1,0.237
-92,-60,161,132,-58,119,-48,0.46,0.791,-0.2
-68,-106,-53,70,121,-12,76,0.224,0.057,1.202
-80,-56,-30,81,12,51,33,0.159,0.587,1.058
-22,-77,132,8,-81,-2,68,0.316,0.355,0.748
-119,-43,33,1,108,-78,-96,0.572,0.294,0.307
-2,27,-127,142,-60,97,145,-0.042,-0.175,0.261
-114,52,-68,73,28,-18,137,-0.38,-0.106,0.176
-63,-117,-15,124,-98,25,66,0.373,-0.091,-0.409
-98,-11,163,56,69,109,-56,-0.237,0.762,0.438
-118,-66,-169,104,98,38,-76,0.244,-0.278,0.616
42,-89,14,108,-35,-8,105,0.52,0.031,0.586
30,-91,13,111,101,32,25,-0.482,-0.472,0.421
-92,-104,56,96,-53,1,114,0.756,0.361,0.181
5,-29,-141,84,-124,-77,69,0.318,-0.537,0.091
-10,-77,57,70,-90,38,-170,0.671,-0.334,0.822
-133,7,164,147,110,-78,-51,0.113,-0.216,0.201
-53,-19,34,119,171,6,-37,-0.094,-0.038,1.254
-125,-82,-100,65,27,33,173,0.221,0.459,0.447
14,-63,-120,47,36,111,133,0.256,0.195,0.304
21,47,38,141,100,-29,-165,0.486,0.23,0.279
-111,-69,-82,115,50,-81,-88,0.308,0.641,0.469
-19,-13,12,87,-71,99,170,-0.375,0.315,0.716
-64,-42,28,80,45,-63,-55,-0.217,-0.388,-0.339
-119,49,129,128,-120,87,121,-0.282,-0.332,-0.199
-116,-101,172,65,-30,-52,100,0.131,-0.464,0.645
-30,37,-66,58,-104,-67,26,0.223,-0.562,0.45
-81,-71,86,14,131,-84,-91,0.101,-0.681,0.327
46,46,-141,35,-45,-89,49,-0.38,0.016,0.171
-121,-37,115,111,-149,-6,99,-0.476,-0.414,0.174
-131,-52,-159,12,-123,-65,-74,0.045,-0.69,0.444
29,-40,84,93,57,102,-96,-0.025,0.786,0.227
47,13,-82,15,86,-27,66,-0.338,0.299,0.195
-91,7,-111,139,84,-27,155,-0.402,-0.488,0.657
19,-65,39,82,-146,56,145,-0.64,-0.547,-0.161
47,-18,147,141,-17,71,46,-0.075,-0.203,0.229
-5,-61,-80,4,32,-8,32,0.394,0.114,-0.143
25,-46,-144,135,-4,-66,139,0.018,-0.141,0.295
-80,46,79,48,-62,-80,-33,0.1,0.335,-0.204
36,-34,52,122,-17,-76,-88,0.307,0.461,0.182
-90,-73,105,112,79,-58,-104,-0.545,-0.202,-0.308
-71,55,22,3,59,-83,-61,0.419,0.109,0.208
17,32,-98,64,-47,28,-82,0.058,-0.062,0.877
-91,-75,94,16,149,-66,57,-0.275,0.224,0.369
-100,-69,-126,60,-44,-38,4,0.089,-0.481,0.282
-40,30,-141,112,-18,51,32,0.408,0.466,0.814
-68,-71,138,102,59,-15,-25,0.09,-0.152,0.642
-77,-99,65,70,158,-49,89,0.318,-0.778,0.501
16,2,76,142,18,20,130,-0.272,0.563,0.459
-3,2,-50,88,-101,-83,-83,-0.882,0.305,0.295
-99,-84,79,107,156,-57,-90,0.76,-0.521,-0.034
9,-21,3,149,116,-30,-124,0.171,-0.285,0.43
-28,-34,45,25,148,78,129,-0.127,0.504,-0.049
-118,-65,-151,147,154,-40,-43,0.072,0.036,0.447
-56,29,44,74,45,73,71,0.155,-0.607,0.181
-132,5,-30,13,128,55,-38,-0.61,0.283,0.635
-35,-87,-107,134,-144,1,-83,0.092,0.555,0.125
-62,-94,45,-1,-173,-43,145,0.309,-0.333,0.847
-32,-75,143,99,-39,35,134,0.1,0.14,0.508
-69,-58,-45,75,-96,-55,84,-0.571,-0.46,0.189
-125,10,-117,47,-96,-29,99,-0.137,-0.103,-0.216
0,22,-121,36,-81,10,-6,0.343,-0.387,-0.092
-76,-12,36,67,102,53,109,0.423,-0.043,0.615
-50,24,59,31,123,-59,21,-0.285,-0.465,0.542
-35,29,-48,30,84,26,134,0.5,0.182,0.602
-58,-37,-99,110,-125,-67,-25,-0.272,-0.322,0.307
7,-108,160,47,-137,-52,158,-0.527,0.01,0.363
-138,-114,-16,67,68,17,27,0.071,0.239,0.404
-60,27,-168,10,-132,-52,-143,-0.083,0.182,-0.162
-121,46,89,62,-138,86,81,-0.61,-0.267,0.269
-80,-123,-147,112,170,-88,-90,0.346,0.249,-0.508
-16,-94,-64,133,-49,-33,16,0.134,0.386,0.944
-83,17,170,21,-154,-23,117,0.05,0.446,0.559
-119,3,77,115,170,4,-30,0.01,-0.333,-0.296
-52,1,118,109,68,106,-90,-0.555,0.176,0.603
-136,-123,-104,70,-121,-90,-154,0.023,0.796,0.147
-73,-117,70,36,-76,-53,-35,0.241,0.307,0.202
-9,-39,-29,103,127,-46,23,0.438,-0.153,0.475
-118,-119,-47,65,13,92,140,-0.3,0.083,0.838
35,47,142,12,135,56,-11,-0.384,0.625,-0.376
-24,-1,116,12,-167,37,-91,-0.156,-0.606,0.945
-109,-18,-2,68,28,73,148,-0.46,-0.453,0.61
32,54,-158,137,-16,-29,-121,-0.019,-0.116,-0.143
-40,-74,83,-3,-47,-60,-144,-0.093,-0.169,0.17
-107,-7,97,94,-9,13,166,-0.358,0.014,1.147
-97,-94,71,126,-98,61,18,-0.011,-0.468,0.905
27,-60,-71,130,-50,22,-67,0.168,0.503,-0.047
-43,-17,28,134,73,83,-169,0.283,0.798,0.428
11,-30,59,36,-24,-14,-25,-0.218,-0.668,-0.008
-62,-118,68,23,-19,73,-14,0.191,0.05,0.687
-90,-90,3,136,41,-73,-102,0.104,-0.008,0.245
-53,-85,-171,56,26,-17,106,-0.311,0.629,-0.171
-15,-83,-123,115,-60,55,-140,0.375,-0.043,0.021
-58,-102,-156,109,-94,43,93,0.312,0.42,0.776
-56,-68,152,100,-45,-40,-88,0.442,-0.108,0.673
-119,-5,116,16,131,50,-136,0.138,0.405,-0.035
37,-94,-127,-2,91,-22,-160,0.234,0.06,0.481
-93,13,119,48,155,24,-9,-0.152,-0.263,0.518
42,-100,-107,69,80,88,79,-0.277,-0.447,1.175
21,-55,-82,139,60,-69,124,0.154,1.037,0.19
-104,-27,77,48,62,29,48,0.101,-0.138,0.463
-1,-50,-69,141,8,-29,-161,-0.036,-0.142,0.271
-113,-70,69,148,-93,40,122,-0.184,-0.208,0.223
5,2,-48,56,101,64,152,-0.258,-0.959,0.222
-71,-119,39,42,-99,112,54,-0.589,-0.301,0.608
25,-84,-23,13,-8,72,137,-0.423,-0.407,0.109
25,33,10,74,35,-49,-57,0.581,0.1,-0.011
-95,-72,-170,76,159,113,108,-0.887,-0.273,-0.024
-121,32,-143,81,24,-30,9,-0.266,-0.657,0.814
12,-5,-119,36,-166,21,-79,-0.099,-0.218,0.484
39,-36,-57,136,1,11,-43,0.384,0.19,0.752
-118,-56,-125,144,112,104,-124,0.228,0.1,0.742
-8,55,-37,21,-88,14,-3,-0.005,-0.051,0.797
0,8,-132,57,-11,64,-17,0.803,-0.403,-0.09
-125,7,-87,16,-27,-85,-100,0.338,0.238,0.236
-86,46,-10,94,80,24,-3,0.344,0.88,0.298
-84,-89,120,16,-61,87,59,-0.456,0.147,0.648
-71,-99,-36,47,88,60,174,-0.303,-0.462,0.047
47,-25,60,123,-72,15,-75,0.069,-0.124,0.32
-10,-54,18,42,105,69,-95,-0.613,0.375,0.338
-121,28,69,145,-61,-71,39,-0.685,0.166,0.057
42,-52,52,79,-111,6,-147,0.114,-0.008,0.809
9,-118,165,12,-1,70,54,-0.608,0.777,0.432
-95,-43,21,2,-15,66,100,0.408,-0.001,0.644
-82,-50,5,127,45,-65,19,-0.177,-0.248,0.841
34,8,-41,47,-76,117,144,-0.537,0.072,0.421
-115,-48,-169,79,-146,-71,36,-0.057,0.115,0.276
-68,-4,128,61,-121,-30,160,0.309,-0.051,-0.3
32,-31,-50,100,-58,9,-79,0.201,-0.133,0.77
-28,-123,166,76,-6,105,-163,-0.523,0.37,-0.282
2,-6,135,60,-97,-16,148,-0.091,-0.072,0.364
5,24,19,15,-72,112,116,-0.029,-0.39,0.576
-113,46,9,27,36,60,-104,0.655,-0.003,0.417
10,44,102,71,75,80,-118,0.051,-0.529,0.852
-69,-89,-67,35,128,56,-125,0.199,0.261,0.767
-13,-31,32,88,-113,-72,-128,0.267,-0.356,0.758
44,-8,-19,147,76,56,159,0.078,-0.337,0.87
18,-12,-41,30,156,64,115,0.618,-0.434,0.674
22,-80,18,60,-39,-60,-10,-0.196,0.366,0.522
-76,-34,29,63,-32,54,124,-0.457,-0.142,-0.125
-66,24,110,92,-134,-31,-80,0.162,-0.526,0.484
-114,-47,-68,112,78,-55,-163,-0.288,-0.576,0.295
-6,-45,61,55,36,-84,150,-0.217,0.168,0.378
-81,55,-126,94,95,59,-127,-0.236,-0.48,0.677
-68,-55,96,137,-79,-33,-89,0.738,0.404,0.482
-65,-59,-159,145,-8,-25,-19,-0.61,0.729,-0.03
-93,-36,66,65,92,80,-100,-0.151,0.275,0.629
-82,-67,42,50,10,-84,137,0.205,-0.653,0.032
-62,-118,-157,59,151,15,84,0.382,-0.154,0.436
37,-78,-31,68,-53,87,-6,-0.437,-0.571,-0.189
-54,-83,-98,20,54,58,81,0.761,-0.317,0.349
-6,-49,51,112,-18,-1,-164,0.548,-0.429,0.714
21,36,-150,144,10,-4,38,0.544,0.064,0.256
-39,-82,-89,100,4,-58,-174,0.202,0.114,1.066
-55,-37,81,91,70,26,47,0.179,-0.276,0.371
-117,46,167,71,59,37,-174,-0.59,0.274,0.678
-25,46,150,93,115,-80,-146,0.682,0.142,0.111
-59,-33,37,90,-48,39,41,-0.211,0.158,0.863
-118,-61,-81,101,112,-55,8,0.714,0.469,0.016
-57,-47,56,97,14,-40,-127,0.038,-0.511,0.304
-56,19,-152,140,163,-55,-129,0.044,-0.492,0.607
-1,-45,-113,108,-94,60,61,-0.295,0.001,0.781
43,-54,171,-1,118,14,-47,-0.564,-0.484,0.01
-94,-89,-42,135,79,-13,-44,0.142,0.429,0.513
15,-72,-48,77,105,-45,55,-0.207,0.194,-0.454
23,-81,26,120,-60,-17,-32,-0.101,-0.549,0.914
-109,-15,-154,107,130,118,-128,-0.529,0.622,-0.007
36,37,57,17,-41,23,33,-0.176,0.439,0.496
-79,49,-142,15,137,118,156,0.208,-0.325,-0.076
46,-42,80,58,91,-63,69,0.39,0.602,0.813
-100,3,55,123,38,114,-118,0.361,0.348,-0.044
-2,-65,112,143,-96,25,83,-0.134,0.283,-0.411
24,-19,-17,12,-11,-62,22,-0.297,-0.003,1.129
-72,-68,80,73,-2,55,-171,-0.071,-0.321,0.292
-116,6,146,56,-15,-60,-51,0.018,0.256,0.695
-102,-78,68,142,-68,88,-125,-0.088,-0.501,-0.049
-6,-91,11,30,48,-39,78,-0.02,-0.153,-0.395
-18,-103,-37,25,-1,-44,-44,0.222,-0.852,-0.154
-100,26,118,63,22,116,-94,0.613,0.169,0.534
-122,1,157,124,-159,-20,-12,0.014,-0.132,0.863
14,-38,-36,9,-139,-64,146,-0.493,0.271,0.406
-117,27,31,3,-95,-75,-108,0.303,0.202,0.685
-72,45,164,145,40,44,74,-1.016,-0.141,0.617
-54,-96,84,132,-31,-6,-111,0.948,-0.094,0.153
-4,4,68,72,-103,85,111,0.144,0.152,0.443
11,43,-154,58,-126,58,14,0.173,0.589,0.142
-122,2,-55,90,108,-46,-15,-0.398,0.072,-0.226
-116,31,-23,-2,95,109,28,-0.142,0.179,0.852
-23,47,84,61,-143,36,54,0.499,0.028,-0.183
33,46,-38,55,6,85,121,0.372,0.342,0.456
-132,40,172,111,137,-15,-50,0.045,-0.042,0.06
-114,-44,-122,76,-139,32,-116,-0.3,0.279,1.118
-135,-43,-141,111,-44,75,-5,-0.469,-0.421,0.14
-132,16,128,131,-72,-13,-100,-0.421,-0.743,0.038
-126,-30,50,38,-70,118,71,0.794,-0.487,0.472
-36,-62,102,123,66,90,161,-0.047,0.225,0.103
22,22,131,53,73,78,-57,0.07,0.446,0.405
28,47,72,15,-141,67,-161,-0.283,-0.034,0.163
-62,-15,-41,0,154,-30,-49,0.097,-0.788,0.114
-71,9,134,70,-96,81,118,-0.458,-0.592,-0.375
-60,-99,117,119,-130,71,-130,-0.455,0.68,0.291
-132,-29,-147,76,0,-37,22,0.797,-0.604,0.388
-73,-23,-83,0,-59,98,-7,0.007,0.611,-0.065
-95,-18,-135,4,13,-85,-81,0.469,-0.294,0.555
-119,59,2,34,-140,92,110,0.249,0.287,0.025
-121,-77,80,147,-41,46,107,-0.497,-0.083,0.396
35,40,65,26,-73,85,-70,-0.512,-0.267,0.117
-137,30,-150,49,-61,-27,-154,0.205,-0.598,0.625
41,-98,-146,15,87,105,34,-0.22,0.48,0.561
-20,27,63,90,43,-55,-174,-0.56,-0.404,0.167
-54,42,69,124,163,22,-166,0.371,0.303,0.342
28,0,149,89,-98,-50,-80,0.253,0.475,1.064
0,20,145,87,-21,62,9,0.495,-0.127,1.004
43,2,78,102,169,-43,72,0.651,-0.498,0.048
-85,21,85,121,-84,64,-17,-0.881,0.303,0.407
-4,-97,-114,62,-120,88,130,0.433,0.382,-0.458
13,-29,-126,102,85,-10,118,0.297,-0.38,-0.172
-57,-40,-88,149,105,-11,128,-0.147,-0.579,0.335
-69,-69,79,108,29,62,17,-0.469,-0.256,0.861
-110,-45,-137,32,33,31,58,0.603,-0.222,0.969
-109,-115,152,73,48,93,-151,-0.36,0.042,0.509
-43,-38,-155,86,-68,20,-76,0.482,0.083,0.692
-123,-30,-68,61,-2,-35,93,-0.031,0.314,0.212
-19,-118,-16,108,-17,91,-67,0.339,0.134,0.604
19,5,-152,146,157,-84,155,-0.339,-0.506,0.573
11,-58,-126,20,49,-86,45,-0.48,0.36,0.678
25,-2,100,98,96,-42,-74,0.067,-0.092,0.003
20,58,-118,121,66,47,-17,0.036,0.572,0.277
-119,59,-66,63,124,-39,127,0.801,-0.465,0.143
-135,-97,166,104,115,-57,46,0.408,-0.206,0.036
-49,-69,72,141,-118,113,-27,-0.56,0.135,0.303
-123,-7,-67,5,-171,12,115,0.04,0.351,0.965
-98,-17,-70,45,-162,-75,-44,0.203,0.941,0.205
41,-3,47,145,-110,29,146,-0.457,0.43,-0.014
19,-52,-1,142,149,79,82,0.101,-0.134,0.266
-16,-47,-68,123,60,-34,84,-0.053,0.167,0.314
-80,-79,-51,41,98,38,-170,0.182,0.3,0.728
-111,33,25,106,-2,32,-79,-0.099,0.756,0.823
-126,31,-151,12,-21,-90,88,-0.225,0.308,0.802
-69,-100,-150,82,142,53,-33,0.246,0.076,0.896
20,26,-21,33,-7,-47,167,0.212,0.253,0.868
-38,-65,150,55,-90,-40,18,-0.121,-0.022,-0.07
-81,-115,81,22,-158,-51,-108,0.486,-0.028,0.406
-113,11,-105,60,120,67,171,-0.355,0.132,0.613
-61,-64,-67,96,-80,17,-61,-0.301,-0.4,0.511
-89,-119,112,53,124,104,-70,-0.224,-0.346,0.487
-39,-95,-162,135,-104,53,-31,0.137,-0.015,0.327
-52,21,125,2,107,22,61,-0.489,-0.236,0.423
-8,-94,-84,149,157,21,-59,0.221,-0.234,0.903
-84,-50,-1,122,-99,-52,-81,-0.049,0.371,0.646
-30,-71,147,13,80,43,128,0.487,-0.67,-0.078
-107,-26,-85,34,135,20,-157,-0.436,0.239,0.009
-75,-9,25,90,77,-59,103,0.121,-0.367,0.436
-29,22,-144,68,36,-90,-130,-0.058,0.55,0.118
-133,-6,-100,105,-115,68,-94,-0.376,0.093,0.627
-79,-1,85,9,68,107,155,0.186,-0.409,-0.061
-118,-86,-86,129,-54,81,-150,0.222,-0.091,-0.199
-14,-45,132,54,116,94,-42,-0.547,-0.114,0.217
-15,46,-76,142,163,80,-160,-0.184,0.152,0.59
9,-103,-62,140,-64,99,143,0.532,-0.293,-0.024
-48,-22,-3,60,-90,16,-144,-0.137,0.188,0.164
-54,9,145,139,-37,3,-8,0.323,0.299,-0.043
-4,-28,18,79,-157,-43,53,-0.182,0.541,0.038
-88,27,51,141,-23,83,-28,-0.085,-0.071,-0.088
-28,14,-166,64,20,0,133,-0.537,-0.044,1.082
-12,-17,-162,111,51,14,44,0.483,-0.358,0.491
24,59,16,56,-92,103,69,-0.44,-0.478,0.098
-66,11,155,127,-140,81,-134,0.199,0.819,0.265
-60,22,127,82,-145,-84,-38,0.16,0.603,-0.065
32,-5,-91,117,-64,-7,62,0.122,0.351,-0.047
-15,-68,137,148,79,82,-4,0.21,0.07,0.722
-75,-34,149,21,149,45,85,0.626,-0.462,0.065
33,-103,72,4,-131,52,4,0.133,-0.43,0.381
-60,-119,79,32,-55,60,-56,0.113,-0.057,0.816
-116,-63,-143,70,74,118,-153,0.309,-0.317,0.992
-28,13,134,3,102,110,-5,-0.368,-0.026,0.4
38,47,86,114,-128,119,34,0.641,-0.74,0.253
-103,18,-123,8,74,37,116,0.65,0.297,0.141
39,41,-116,11,-51,-68,111,0.205,-0.346,-0.395
50,-37,7,74,-39,108,15,0.178,-0.584,0.791
-132,16,-10,118,-15,0,-4,-0.614,-0.414,0.146
-49,19,6,80,-114,114,125,0.111,-0.361,0.922
34,-42,160,53,4,119,12,-0.494,-0.224,0.121
-12,-25,27,23,-85,72,87,0.179,-0.078,0.415
-35,-6,-124,116,42,-45,-152,-0.384,-0.003,0.075
-83,-80,-58,119,54,-74,64,0.203,-0.838,0.358
-4,31,-162,118,-143,33,-78,0.475,0.075,0.715
3,47,-55,76,-59,101,-168,-0.014,0.611,-0.536
-45,-37,-95,25,-3,-23,112,0.397,-0.284,0.813
50,31,37,116,76,30,-105,-0.171,-0.541,0.53
47,-11,-55,143,6,-31,65,-0.324,0.776,0.397
23,14,132,95,27,-21,74,-0.68,-0.11,0.149
-19,-100,-70,3,-86,102,35,-0.12,-0.197,0.198
-5,-64,152,10,-143,-28,127,0.231,-0.226,0.601
-45,-8,83,65,4,104,-71,-0.028,0.389,0.17
-133,12,30,90,83,21,109,-0.26,-0.19,0.274
12,-22,145,24,112,45,142,-0.311,-0.794,0.13
-114,-13,-172,92,38,-35,-117,0.032,0.298,0.734
-83,-62,-164,135,-43,-57,-16,-0.486,0.087,0.52
-89,-64,16,31,-96,-11,9,-0.188,0.601,0.644
-33,27,-89,69,-33,-60,-164,-0.154,-0.634,0.345
-102,13,-14,60,7,76,-39,0.221,0.326,0.417
-105,6,-33,114,-19,-32,3,0.462,-0.04,1.119
-35,-107,-126,77,63,19,-30,-0.308,0.635,0.787
-98,-122,-128,124,149,60,-172,0.066,-0.043,0.073
-72,-79,-70,50,49,57,13,-0.732,0.586,-0.155
-24,58,-91,120,-52,31,-109,0.509,0.618,0.938
-108,-22,-84,97,-146,-79,-124,-0.178,-0.558,0.082
-87,30,-37,87,-64,7,32,0.217,-0.758,0.607
-79,-42,31,145,-10,33,162,-0.43,0.702,-0.115
18,23,-57,108,-1,98,-25,-0.64,0.148,0.279
-101,-72,-104,72,-90,23,32,0.244,-0.043,0.108
-52,4,-101,100,-109,7,-123,-0.646,0.385,-0.203
-114,-114,50,98,40,9,-168,-0.121,0.094,0.242
-141,-62,-157,100,-45,6,167,-0.477,-0.133,1.126
-26,-74,90,92,164,50,-133,-0.122,-0.454,-0.139
-48,-75,135,124,-166,-45,156,-0.386,0.6,0.57
-104,-117,47,54,-56,17,-110,-0.4,0.05,-0.168
-119,31,-148,129,98,50,-173,0.04,0.52,0.314
-80,-8,-172,115,-139,-47,90,0.473,-0.319,0.109
-99,33,-15,31,-59,105,-68,0.548,0.628,0.313
-87,-53,-141,45,78,-45,-142,0.686,0.052,-0.256
13,35,-119,130,-35,25,29,0.554,-0.428,0.367
-56,-5,45,88,10,75,30,0.943,0.385,0.618
-29,-104,33,86,32,48,-157,0.392,0.205,-0.045
-83,-16,10,5,26,-82,-11,-0.22,-0.099,-0.511
-43,-8,-145,-1,-131,31,-121,0.155,-0.738,-0.07
-123,0,6,139,-17,-83,30,-0.161,0.526,0.943
-141,-46,-169,54,-98,-28,-124,-0.116,0.289,0.189
47,41,-77,136,-125,66,-33,-0.138,0.381,-0.148
-19,-107,103,103,62,-86,-92,0.192,0.42,0.681
-42,-103,-68,142,-160,3,-45,0.054,0.041,0.283
-62,16,-22,129,166,5,-107,-0.29,-0.09,-0.058
32,-87,153,114,62,75,156,0.386,0.654,0.956
-2,-58,169,39,-95,-55,-1,-0.486,0.386,0.658
-54,-97,-140,-1,79,111,-135,0.501,0.057,-0.095
5,30,169,41,75,61,-63,-0.346,-0.254,0.485
-115,40,78,102,-130,0,129,-0.168,-0.903,0.03
-62,-18,7,39,-61,-74,-36,0.363,0.738,0.277
12,11,169,71,144,8,147,-0.308,-0.487,0.482
-104,24,-50,17,-104,-58,-122,0.582,0.292,0.335
-68,53,137,147,155,99,-62,0.199,-0.084,0.594
17,3,-167,64,45,116,-154,-0.121,-0.282,-0.14
-26,-109,-158,64,-110,18,72,-0.634,-0.264,0.693
40,1,-94,136,88,-90,-174,0.216,0.413,0.396
-63,55,77,7,150,-53,-118,-0.576,-0.143,0.449
38,-37,-103,112,-28,-17,35,0.433,0.374,0.385
-65,-34,-118,4,-7,-5,47,-0.175,0.57,0.495
-113,-70,65,74,-125,57,124,0.008,-0.29,1.035
-61,3,67,22,52,68,-70,-0.189,0.529,-0.043
-105,-26,71,57,35,-25,-100,0.075,-0.734,0.897
-95,56,47,100,70,93,48,0.036,0.291,1.047
-94,43,-17,107,-51,97,22,-0.291,-0.025,0.797
-33,9,37,108,-141,22,-138,-0.473,0.069,-0.063
4,-37,39,73,13,52,93,-0.504,0.117,0.579
